;FLAVOR:Marlin
;TIME:92
;Filament used: 0.0508414m
;Layer height: 0.2
;MINX:-39.144
;MINY:-38.265
;MINZ:0.2
;MAXX:38.805
;MAXY:37.549
;MAXZ:0.4
;Generated with Cura_SteamEngine 5.0.0
M104 S200
M105
M109 S200
M82 ;absolute extrusion mode

G92 E0
G92 E0
;LAYER_COUNT:2
;LAYER:0
M107
;MESH:Universal Recycling Symbol (U+2672).jpg
G0 F3600 X-2.642 Y-14.916 Z0.2
;TYPE:WALL-OUTER
G1 F1501.7 X-2.642 Y-11.662 E0.09171
G1 F1496.7 X-2.645 Y-11.584 E0.09392
G1 F1490.1 X-3.131 Y-11.098 E0.11344
G1 F1495 X-3.209 Y-11.095 E0.11565
G1 F1500 X-19.961 Y-11.095 E0.58832
G1 F1567.9 X-20.517 Y-11.134 E0.60337
G1 F1717.6 X-21.055 Y-11.17 E0.61666
G1 F1735.2 X-21.433 Y-11.234 E0.62601
G1 F1601.4 X-21.714 Y-11.409 E0.63476
G1 F1532.3 X-21.97 Y-11.873 E0.64939
G1 X-22.239 Y-12.35 E0.66452
G1 F1527.1 X-22.525 Y-12.838 E0.68019
G1 F1516.9 X-22.761 Y-13.283 E0.69425
G1 F1511.8 X-23.061 Y-13.754 E0.70988
G1 F1493.4 X-23.304 Y-14.2 E0.72428
G1 F1495 X-23.614 Y-14.695 E0.74081
G1 F1498.3 X-23.872 Y-15.161 E0.75586
G1 F1495 X-24.15 Y-15.623 E0.77112
G1 F1501.7 X-24.398 Y-16.074 E0.78563
G1 F1506.7 X-24.734 Y-16.591 E0.80295
G1 F1523.7 X-24.939 Y-17.049 E0.81689
G1 F1516.9 X-25.235 Y-17.745 E0.83799
G1 F1503.3 X-25.383 Y-18.237 E0.85245
G1 F1511.8 X-25.461 Y-18.612 E0.86318
G1 F1571.6 X-25.495 Y-18.844 E0.86949
G1 F1700.3 X-25.479 Y-19.325 E0.88147
G1 F1795.2 X-25.54 Y-19.887 E0.8948
G1 F1800 X-25.485 Y-20.419 E0.90738
G1 X-25.456 Y-20.977 E0.92051
G1 F1741.9 X-25.362 Y-21.571 E0.93513
G1 F1546.4 X-25.362 Y-22.02 E0.94741
G1 F1454.7 X-25.175 Y-22.598 E0.96509
G1 F1501.7 X-25 Y-23.06 E0.97901
G1 F1505 X-24.755 Y-23.597 E0.99561
G1 F1506.7 X-24.503 Y-24.07 E1.01067
G1 F1523.7 X-24.276 Y-24.528 E1.02487
G1 F1508.4 X-23.777 Y-25.26 E1.04972
G1 F1501.7 X-23.366 Y-25.776 E1.06832
G1 F1508.4 X-23 Y-26.173 E1.08347
G1 F1516.9 X-22.412 Y-26.659 E1.10475
G1 F1525.4 X-21.863 Y-27.053 E1.1235
G1 F1515.2 X-21.349 Y-27.332 E1.13984
G1 X-20.898 Y-27.579 E1.1542
G1 F1508.4 X-20.423 Y-27.754 E1.16841
G1 F1496.7 X-19.368 Y-28.103 E1.19983
G1 F1493.4 X-19.013 Y-28.197 E1.21024
G1 F1495 X-18.509 Y-28.264 E1.22463
G1 F1501.7 X-18.067 Y-28.352 E1.23733
G1 F1500 X-3.209 Y-28.353 E1.65656
G1 F1505 X-2.977 Y-28.298 E1.66327
G1 F1642.3 X-2.768 Y-28.071 E1.67122
G1 F1638.3 X-2.563 Y-27.786 E1.68029
G1 F1503.3 X-2.564 Y-24.672 E1.76796
G1 F1501.7 X-2.603 Y-24.162 E1.78237
G1 F1500 X-2.603 Y-15.455 E2.02805
G1 F1501.7 X-2.642 Y-14.916 E2.04328
G0 F3600 X-2.642 Y-14.541
G0 X-2.232 Y-14.54
G0 X-2.296 Y-11.332
G0 X-20.182 Y-10.543
G0 X-21.13 Y-9.558
G0 X-15.495 Y-0.025
G0 X-15.681 Y0.882
G1 F1800 X-15.094 Y0.52 E2.0595
G1 F1638.3 X-14.503 Y0.064 E2.07878
G1 F1505 X-13.449 Y-.546 E2.11303
G1 F1511.8 X-12.8 Y-.937 E2.13424
G1 F1518.6 X-12.367 Y-1.208 E2.14848
G1 F1505 X-11.75 Y-1.557 E2.16841
G1 F1611 X-11.44 Y-1.551 E2.17656
G1 F1776.3 X-11.234 Y-1.429 E2.18226
G1 F1764.7 X-11.099 Y-1.165 E2.18937
G1 F1605.2 X-11.036 Y-.938 E2.19558
G1 F1513.5 X-11.527 Y-.168 E2.22112
G1 X-11.814 Y0.345 E2.23756
G1 F1496.7 X-12.087 Y0.766 E2.25175
G1 F1511.8 X-12.344 Y1.204 E2.26597
G1 F1525.4 X-12.845 Y2.021 E2.29256
G1 F1522 X-13.15 Y2.495 E2.30823
G1 F1520.3 X-13.633 Y3.295 E2.33425
G1 F1528.9 X-14.03 Y3.936 E2.35512
G1 F1530.6 X-14.3 Y4.374 E2.36935
G1 F1511.8 X-14.758 Y5.083 E2.39298
G1 X-15.023 Y5.526 E2.40743
G1 F1520.3 X-15.287 Y5.99 E2.42229
G1 F1522 X-15.64 Y6.545 E2.44058
G1 F1528.9 X-16.077 Y7.209 E2.46259
G1 F1515.2 X-16.363 Y7.677 E2.47791
G1 F1505 X-16.641 Y8.118 E2.49257
G1 F1515.2 X-16.885 Y8.564 E2.50677
G1 F1525.4 X-17.337 Y9.287 E2.53043
G1 F1516.9 X-17.611 Y9.708 E2.54444
G1 X-17.866 Y10.161 E2.55895
G1 F1532.3 X-18.168 Y10.634 E2.57445
G1 F1539.3 X-18.498 Y11.165 E2.59164
G1 F1534.1 X-18.562 Y11.251 E2.5946
G1 F1446.9 X-18.776 Y11.47 E2.60355
G1 F1439.2 X-19.18 Y11.525 E2.61554
G1 F1501.7 X-32.682 Y11.525 E2.99609
G1 F1582.6 X-32.931 Y11.413 E3.00339
G1 F1733 X-33.153 Y11.076 E3.01325
G1 F1687.5 X-33.119 Y10.673 E3.02339
G1 F1537.6 X-33.058 Y10.549 E3.02719
G1 F1483.5 X-32.595 Y10.271 E3.0426
G1 F1491.7 X-32.118 Y9.98 E3.05845
G1 F1505 X-31.386 Y9.538 E3.0825
G1 F1480.3 X-30.919 Y9.265 E3.09797
G1 F1566.1 X-30.361 Y8.969 E3.11504
G1 F1744.2 X-30.09 Y8.867 E3.12206
G1 F1800 X-29.639 Y8.569 E3.13477
G1 X-29.61 Y8.514 E3.13624
G1 X-29.91 Y8.012 E3.14999
G1 F1618.7 X-30.265 Y7.598 E3.16425
G1 F1495 X-30.459 Y7.226 E3.17612
G1 F1520.3 X-30.738 Y6.746 E3.19158
G1 F1530.6 X-31.047 Y6.257 E3.20758
G1 X-31.301 Y5.809 E3.22182
G1 F1532.3 X-31.614 Y5.313 E3.23802
G1 F1548.2 X-31.863 Y4.872 E3.25186
G1 F1542.9 X-32.146 Y4.397 E3.26703
G1 X-32.451 Y3.901 E3.283
G1 F1537.6 X-32.699 Y3.464 E3.29683
G1 F1528.9 X-32.944 Y3.025 E3.31075
G1 F1527.1 X-33.225 Y2.58 E3.32534
G1 F1532.3 X-33.635 Y1.9 E3.34727
G1 F1548.2 X-33.985 Y1.294 E3.3664
G1 F1534.1 X-34.256 Y0.828 E3.38127
G1 F1527.1 X-34.557 Y0.36 E3.39669
G1 F1532.3 X-34.811 Y-.149 E3.4124
G1 F1525.4 X-35.031 Y-.7 E3.42886
G1 F1515.2 X-35.137 Y-1.202 E3.4432
G1 F1501.7 X-35.246 Y-1.646 E3.45608
G1 F1495 X-35.239 Y-2.78 E3.48819
G1 F1510.1 X-35.13 Y-3.288 E3.50275
G1 F1523.7 X-35.044 Y-3.819 E3.51769
G1 F1518.6 X-34.791 Y-4.471 E3.53718
G1 F1522 X-34.518 Y-4.963 E3.55283
G1 F1535.8 X-34.301 Y-5.418 E3.56672
G1 F1534.1 X-34.038 Y-5.922 E3.5824
G1 F1515.2 X-33.762 Y-6.392 E3.59763
G1 F1513.5 X-33.551 Y-6.847 E3.61166
G1 F1501.7 X-33.275 Y-7.323 E3.62716
G1 F1500 X-33.044 Y-7.778 E3.64156
G1 F1525.4 X-32.79 Y-8.252 E3.65648
G1 F1535.8 X-32.544 Y-8.76 E3.67204
G1 F1527.1 X-32.224 Y-9.317 E3.68984
G1 F1530.6 X-31.968 Y-9.788 E3.70466
G1 X-31.74 Y-10.252 E3.71896
G1 X-31.473 Y-10.732 E3.73415
G1 X-31.236 Y-11.196 E3.74855
G1 F1513.5 X-30.923 Y-11.72 E3.76562
G1 F1505 X-30.709 Y-12.184 E3.77999
G1 F1523.7 X-30.416 Y-12.723 E3.79703
G1 F1528.9 X-30.156 Y-13.238 E3.813
G1 F1518.6 X-29.876 Y-13.732 E3.82883
G1 F1516.9 X-29.642 Y-14.191 E3.8432
G1 F1513.5 X-29.228 Y-14.94 E3.86714
G1 F1525.4 X-28.875 Y-15.61 E3.88815
G1 F1539.3 X-28.652 Y-16.07 E3.9022
G1 F1525.4 X-28.217 Y-16.849 E3.92696
G1 F1520.3 X-27.896 Y-17.463 E3.94625
G1 F1532.3 X-27.545 Y-18.124 E3.96692
G1 F1510.1 X-27.222 Y-18.676 E3.98484
G1 F1634.4 X-26.94 Y-18.784 E3.99266
G1 F1800 X-26.764 Y-18.786 E3.9968
G1 F1704.5 X-26.404 Y-18.555 E4.00742
G1 F1567.9 X-26.314 Y-18.384 E4.01264
G1 F1516.9 X-26.204 Y-17.827 E4.02848
G1 F1520.3 X-25.933 Y-17.066 E4.05097
G1 X-25.676 Y-16.51 E4.06802
G1 F1511.8 X-25.334 Y-15.873 E4.08826
G1 F1510.1 X-25.028 Y-15.342 E4.10544
G1 F1501.7 X-24.74 Y-14.852 E4.12146
G1 F1500 X-24.472 Y-14.424 E4.13571
G1 F1491.7 X-24.172 Y-13.879 E4.15336
G1 F1493.4 X-23.867 Y-13.373 E4.17011
G1 F1505 X-23.615 Y-12.919 E4.18471
G1 F1508.4 X-23.396 Y-12.584 E4.19594
G1 F1511.8 X-23.137 Y-12.113 E4.21099
G1 F1520.3 X-22.862 Y-11.638 E4.22627
G1 F1530.6 X-22.53 Y-11.044 E4.24508
G1 F1597.6 X-22.226 Y-10.461 E4.2625
G1 F1735.2 X-21.981 Y-9.97 E4.27588
G1 F1713.2 X-21.618 Y-9.418 E4.29221
G1 F1557.1 X-21.375 Y-9.063 E4.3039
G1 F1495 X-21.093 Y-8.559 E4.32025
G1 F1518.6 X-20.796 Y-8.092 E4.33567
G1 F1537.6 X-20.448 Y-7.49 E4.35481
G1 F1527.1 X-20.092 Y-6.892 E4.3741
G1 F1506.7 X-19.788 Y-6.346 E4.39166
G1 F1498.3 X-19.537 Y-5.861 E4.40708
G1 F1518.6 X-19.252 Y-5.398 E4.42224
G1 F1534.1 X-18.978 Y-4.936 E4.43705
G1 F1523.7 X-18.655 Y-4.382 E4.45487
G1 F1511.8 X-18.394 Y-3.908 E4.47002
G1 F1503.3 X-18.138 Y-3.477 E4.48413
G1 F1515.2 X-17.891 Y-3.034 E4.4983
G1 F1516.9 X-17.612 Y-2.555 E4.51376
G1 F1501.7 X-17.322 Y-2.062 E4.52989
G1 F1520.3 X-17.022 Y-1.569 E4.54595
G1 F1518.6 X-16.783 Y-1.106 E4.56047
G1 F1486.8 X-16.521 Y-.672 E4.5749
G1 F1597.6 X-16.192 Y0.042 E4.59573
G1 F1771.7 X-15.912 Y0.492 E4.60839
G1 F1800 X-15.681 Y0.882 E4.61905
G0 F3600 X-15.362 Y0.685
G0 X-15.495 Y-0.025
G0 X-12.204 Y-1.735
G0 X-11.015 Y-2.259
G0 X-10.606 Y-.933
G0 X-18.277 Y11.478
G0 X-32.837 Y11.875
G0 X-34.338 Y11.151
G0 X-33.435 Y10.378
G0 X-30.737 Y8.559
G0 X-31.354 Y8.44
G1 F1480.3 X-31.81 Y8.744 E4.63472
G1 F1490.1 X-32.26 Y9.01 E4.64957
G1 F1493.4 X-32.696 Y9.275 E4.66403
G1 F1506.7 X-33.429 Y9.718 E4.68809
G1 F1496.7 X-33.641 Y9.862 E4.69533
G1 F1542.9 X-33.87 Y9.919 E4.70181
G1 F1693.9 X-34.604 Y10.314 E4.72264
G1 F1800 X-35.255 Y10.737 E4.74089
G1 X-35.545 Y10.879 E4.74848
G1 X-36.368 Y11.384 E4.77119
G1 X-36.885 Y11.68 E4.78519
G1 X-37.654 Y12.134 E4.80619
G1 X-38.28 Y12.499 E4.82323
G1 X-34.223 Y12.499 E4.91862
G1 F1767 X-33.679 Y12.484 E4.93166
G1 F1702.4 X-33.135 Y12.469 E4.94519
G1 F1582.6 X-32.682 Y12.425 E4.95736
G1 F1501.7 X-19.18 Y12.425 E5.33791
G1 F1439.2 X-18.534 Y12.385 E5.35694
G1 F1380.4 X-18.371 Y12.386 E5.36194
G1 X-18.158 Y12.209 E5.37043
G1 F1446.9 X-17.869 Y11.787 E5.38539
G1 F1528.9 X-17.55 Y11.305 E5.40139
G1 F1532.3 X-17.087 Y10.579 E5.42517
G1 X-16.612 Y9.795 E5.45049
G1 F1530.6 X-16.297 Y9.268 E5.46747
G1 F1518.6 X-15.867 Y8.564 E5.49046
G1 F1505 X-15.586 Y8.136 E5.50486
G1 F1515.2 X-15.329 Y7.677 E5.51955
G1 F1532.3 X-15.027 Y7.214 E5.53482
G1 F1528.9 X-14.602 Y6.573 E5.55611
G1 F1518.6 X-14.325 Y6.086 E5.57173
G1 F1510.1 X-14.044 Y5.653 E5.58619
G1 F1518.6 X-13.796 Y5.212 E5.6003
G1 F1530.6 X-13.355 Y4.517 E5.62306
G1 F1532.3 X-13.046 Y4.025 E5.6391
G1 F1527.1 X-12.513 Y3.151 E5.66747
G1 F1523.7 X-12.111 Y2.519 E5.68828
G1 X-11.735 Y1.89 E5.70864
G1 F1518.6 X-11.444 Y1.431 E5.72378
G1 F1506.7 X-11.123 Y0.939 E5.74028
G1 F1513.5 X-10.82 Y0.369 E5.75834
G1 F1530.6 X-10.498 Y-.128 E5.77471
G1 F1515.2 X-10.22 Y-.581 E5.78956
G1 F1605.2 X-9.881 Y-.985 E5.80346
G1 F1764.7 X-9.471 Y-1.593 E5.82105
G1 F1800 X-9.05 Y-2.303 E5.84046
G1 X-8.663 Y-2.904 E5.85727
G1 X-8.4 Y-3.381 E5.87007
G1 X-8.113 Y-3.808 E5.88217
G1 X-7.839 Y-4.298 E5.89537
G1 X-7.451 Y-4.905 E5.91231
G1 X-7.148 Y-5.342 E5.92482
G1 X-6.999 Y-5.589 E5.9316
G1 X-7.484 Y-5.303 E5.94484
G1 X-7.942 Y-5.013 E5.95758
G1 X-8.476 Y-4.67 E5.97251
G1 X-9.138 Y-4.273 E5.99066
G1 X-9.652 Y-3.974 E6.00464
G1 X-10.326 Y-3.557 E6.02327
G1 X-10.923 Y-3.189 E6.03976
G1 F1776.3 X-11.678 Y-2.729 E6.06083
G1 F1611 X-12.169 Y-2.362 E6.07693
G1 F1510.1 X-12.669 Y-2.047 E6.0935
G1 F1520.3 X-13.157 Y-1.76 E6.10926
G1 F1510.1 X-13.61 Y-1.511 E6.12375
G1 F1518.6 X-14.364 Y-1.038 E6.14855
G1 F1522 X-14.823 Y-.781 E6.16318
G1 F1510.1 X-14.929 Y-.724 E6.16656
G1 F1582.6 X-15.129 Y-.734 E6.17191
G1 F1601.4 X-15.614 Y-.937 E6.18581
G1 F1505 X-15.882 Y-1.377 E6.20029
G1 F1508.4 X-16.168 Y-1.855 E6.21592
G1 F1525.4 X-16.415 Y-2.301 E6.23007
G1 F1520.3 X-16.736 Y-2.802 E6.24663
G1 F1527.1 X-17.014 Y-3.286 E6.2621
G1 F1508.4 X-17.318 Y-3.843 E6.27991
G1 F1493.4 X-17.56 Y-4.297 E6.29449
G1 F1501.7 X-17.778 Y-4.633 E6.30578
G1 F1510.1 X-18.028 Y-5.086 E6.32028
G1 F1513.5 X-18.311 Y-5.527 E6.33493
G1 F1527.1 X-18.559 Y-5.968 E6.34896
G1 F1513.5 X-18.959 Y-6.691 E6.37206
G1 F1518.6 X-19.251 Y-7.196 E6.38832
G1 F1534.1 X-19.538 Y-7.67 E6.40361
G1 F1516.9 X-19.792 Y-8.123 E6.4181
G1 F1523.7 X-20.105 Y-8.64 E6.43489
G1 F1520.3 X-20.385 Y-9.119 E6.45033
G1 F1522 X-20.567 Y-9.569 E6.46383
G1 F1664.6 X-20.427 Y-9.862 E6.47209
G1 F1628.5 X-20.039 Y-10.193 E6.48534
G1 F1493.4 X-19.961 Y-10.195 E6.48755
G1 F1500 X-3.209 Y-10.195 E6.96023
G1 F1616.8 X-2.464 Y-10.13 E6.9798
G1 F1776.3 X-1.733 Y-10.121 E6.99722
G1 F1800 X-1.668 Y-10.162 E6.99903
G1 X-1.668 Y-10.834 E7.01483
G1 F1632.4 X-1.745 Y-11.506 E7.03237
G1 F1496.7 X-1.743 Y-11.662 E7.03678
G1 F1501.7 X-1.742 Y-14.948 E7.12939
G1 X-1.704 Y-15.455 E7.14372
G1 X-1.704 Y-19.819 E7.26672
G1 X-1.703 Y-24.183 E7.38972
G1 F1505 X-1.666 Y-24.696 E7.40418
G1 X-1.665 Y-27.786 E7.49108
G1 F1638.3 X-1.59 Y-28.613 E7.51253
G1 F1800 X-1.59 Y-29.289 E7.52842
G1 X-1.672 Y-29.326 E7.53054
G1 X-2.304 Y-29.327 E7.5454
G1 F1642.3 X-2.824 Y-29.255 E7.55893
G1 F1505 X-3.209 Y-29.252 E7.56975
G1 F1500 X-18.14 Y-29.251 E7.99104
G1 F1505 X-18.488 Y-29.193 E8.00097
G1 F1491.7 X-18.873 Y-29.116 E8.01211
G1 F1493.4 X-19.414 Y-29.024 E8.02766
G1 F1501.7 X-20.245 Y-28.768 E8.05217
G1 F1491.7 X-20.887 Y-28.55 E8.0714
G1 F1508.4 X-21.351 Y-28.343 E8.08566
G1 F1516.9 X-21.861 Y-28.071 E8.10179
G1 F1515.2 X-22.319 Y-27.812 E8.11648
G1 F1513.5 X-22.81 Y-27.49 E8.1329
G1 F1505 X-23.562 Y-26.87 E8.16031
G1 F1508.4 X-24.048 Y-26.355 E8.18018
G1 F1501.7 X-24.494 Y-25.81 E8.20003
G1 F1503.3 X-24.978 Y-25.098 E8.22427
G1 F1520.3 X-25.222 Y-24.598 E8.23976
G1 F1508.4 X-25.559 Y-24.014 E8.25868
G1 F1505 X-25.81 Y-23.418 E8.27686
G1 F1501.7 X-26.028 Y-22.912 E8.29239
G1 F1454.7 X-26.228 Y-22.395 E8.30852
G1 F1546.4 X-26.558 Y-21.989 E8.32284
G1 F1741.9 X-26.809 Y-21.52 E8.33576
G1 F1800 X-27.082 Y-21.036 E8.34883
G1 X-27.308 Y-20.557 E8.36128
G1 X-27.553 Y-20.179 E8.37187
G1 X-27.749 Y-19.788 E8.38216
G1 F1634.4 X-27.992 Y-19.145 E8.39996
G1 F1510.1 X-28.34 Y-18.515 E8.42013
G1 F1532.3 X-28.664 Y-17.888 E8.43962
G1 F1522 X-28.944 Y-17.401 E8.45525
G1 F1511.8 X-29.227 Y-16.849 E8.47261
G1 F1528.9 X-29.572 Y-16.178 E8.4935
G1 F1537.6 X-29.843 Y-15.683 E8.50903
G1 F1542.9 X-30.173 Y-15.061 E8.52835
G1 F1527.1 X-30.437 Y-14.602 E8.54302
G1 F1516.9 X-30.662 Y-14.135 E8.55749
G1 F1518.6 X-30.95 Y-13.651 E8.57318
G1 F1530.6 X-31.153 Y-13.191 E8.58709
G1 F1525.4 X-31.488 Y-12.632 E8.60517
G1 F1505 X-31.724 Y-12.118 E8.62107
G1 F1513.5 X-31.982 Y-11.684 E8.63519
G1 F1530.6 X-32.23 Y-11.171 E8.65095
G1 F1528.9 X-32.511 Y-10.7 E8.66613
G1 F1527.1 X-32.736 Y-10.21 E8.68107
G1 F1528.9 X-32.993 Y-9.766 E8.69528
G1 F1522 X-33.273 Y-9.26 E8.71136
G1 F1534.1 X-33.492 Y-8.809 E8.72519
G1 X-33.752 Y-8.321 E8.74045
G1 F1505 X-34.036 Y-7.845 E8.75603
G1 F1506.7 X-34.266 Y-7.363 E8.77103
G1 F1520.3 X-34.565 Y-6.79 E8.78903
G1 F1515.2 X-34.906 Y-6.183 E8.80848
G1 F1534.1 X-35.206 Y-5.545 E8.82793
G1 F1532.3 X-35.537 Y-4.967 E8.84632
G1 F1515.2 X-35.748 Y-4.481 E8.86112
G1 F1513.5 X-35.928 Y-3.953 E8.87672
G1 F1505 X-35.985 Y-3.691 E8.88426
G1 F1518.6 X-36.05 Y-3.262 E8.89636
G1 F1516.9 X-36.142 Y-2.784 E8.90994
G1 F1496.7 X-36.145 Y-1.513 E8.94588
G1 F1491.7 X-36.004 Y-.945 E8.96249
G1 F1496.7 X-35.926 Y-.58 E8.97304
G1 F1515.2 X-35.635 Y0.176 E8.99567
G1 F1535.8 X-35.375 Y0.683 E9.01137
G1 F1532.3 X-35.068 Y1.213 E9.02829
G1 F1537.6 X-34.746 Y1.713 E9.04466
G1 F1544.6 X-34.482 Y2.176 E9.05926
G1 F1523.7 X-34.124 Y2.79 E9.079
G1 F1527.1 X-33.826 Y3.276 E9.0948
G1 F1530.6 X-33.546 Y3.751 E9.11005
G1 F1535.8 X-33.288 Y4.208 E9.12451
G1 F1542.9 X-32.934 Y4.772 E9.14278
G1 X-32.601 Y5.335 E9.16072
G1 F1548.2 X-32.346 Y5.789 E9.17496
G1 F1532.3 X-32.052 Y6.284 E9.19086
G1 F1530.6 X-31.788 Y6.724 E9.20505
G1 F1539.3 X-31.492 Y7.207 E9.22062
G1 F1528.9 X-31.217 Y7.686 E9.23591
G1 F1495 X-31.151 Y7.827 E9.24032
G1 F1462.6 X-31.354 Y8.44 E9.25901
G0 F3600 X-31.666 Y8.648
G0 X-30.737 Y8.559
G0 X-30.524 Y8.234
;TYPE:WALL-INNER
G1 F2021 X-30.606 Y8.234 E9.26072
G1 X-30.647 Y8.305 E9.26244
G1 X-30.606 Y8.376 E9.26416
G1 X-30.524 Y8.376 E9.26588
G1 X-30.482 Y8.305 E9.2676
G0 F3600 X-30.516 Y8.318
G0 X-35.539 Y11.757
G1 F1834.2 X-34.728 Y11.756 E9.28632
G1 X-33.474 Y11.755 E9.31525
G1 X-33.866 Y11.302 E9.32907
G1 F1829.3 X-33.876 Y10.778 E9.3412
G1 F1824.3 X-33.873 Y10.768 E9.34144
G1 F1829.3 X-34.424 Y11.081 E9.3561
G1 F1834.2 X-34.847 Y11.358 E9.36777
G1 X-35.37 Y11.657 E9.38167
G1 X-35.539 Y11.757 E9.3862
G0 F3600 X-32.837 Y11.875
G0 X-19.1 Y11.875
G0 X-10.606 Y-.933
G0 X-11.015 Y-2.259
G0 X-15.369 Y-.116
G0 X-15.365 Y-.101
G1 F1979.5 X-15.408 Y-0.028 E9.38801
G1 X-15.492 Y-0.028 E9.38981
G1 X-15.534 Y-.101 E9.39161
G1 X-15.492 Y-.174 E9.39341
G1 X-15.408 Y-.174 E9.39521
G0 F3600 X-15.419 Y-.139
G0 X-10.844 Y-2.427
G0 X-11.125 Y-2.209
G1 F1814.5 X-10.932 Y-2.136 E9.40002
G1 X-10.688 Y-1.939 E9.40734
G1 X-10.432 Y-1.495 E9.41929
G1 X-10.429 Y-1.482 E9.4196
G1 X-10.102 Y-1.993 E9.43375
G1 X-9.695 Y-2.682 E9.45242
G1 X-9.277 Y-3.328 E9.47037
G1 X-9.928 Y-2.926 E9.48821
G1 X-10.512 Y-2.564 E9.50424
G1 X-11.125 Y-2.209 E9.52076
G0 F3600 X-10.844 Y-2.427
G0 X-14.605 Y-.476
G0 X-15.863 Y-.632
G0 X-21.13 Y-9.558
G0 X-20.182 Y-10.543
G0 X-4.396 Y-10.534
G0 X-2.34 Y-10.834
G0 X-2.297 Y-10.834
G1 F1997 X-2.339 Y-10.762 E9.52253
G1 X-2.423 Y-10.762 E9.52431
G1 X-2.464 Y-10.834 E9.52606
G1 X-2.422 Y-10.906 E9.52783
G1 X-2.339 Y-10.906 E9.52959
G0 F3600 X-2.34 Y-10.906
