;FLAVOR:Marlin
;TIME:458
;Filament used: 0.30934m
;Layer height: 0.2
;MINX:-39.626
;MINY:-39.626
;MINZ:0.2
;MAXX:39.625
;MAXY:39.625
;MAXZ:0.4
;Generated with Cura_SteamEngine 5.0.0
M104 S200
M105
M109 S200
M82 ;absolute extrusion mode

G92 E0
G92 E0
;LAYER_COUNT:2
;LAYER:0
M107
;MESH:b0e0e4d3731589545571.png
G0 F3600 X-8.561 Y4.281 Z0.2
;TYPE:WALL-OUTER
G1 F1800 X-8.742 Y3.979 E0.00828
G1 X-8.829 Y3.685 E0.01549
G1 X-8.865 Y3.419 E0.0218
G1 X-9.044 Y2.935 E0.03393
G1 X-9.237 Y2.357 E0.04826
G1 X-9.37 Y1.803 E0.06166
G1 X-9.485 Y1.226 E0.07549
G1 X-9.567 Y0.355 E0.09606
G1 X-9.962 Y0.609 E0.1071
G1 X-10.448 Y0.821 E0.11957
G1 X-10.918 Y1.097 E0.13239
G1 X-11.433 Y1.485 E0.14755
G1 X-11.974 Y1.685 E0.16111
G1 X-12.102 Y1.727 E0.16428
G1 X-12.514 Y2.025 E0.17623
G1 X-13.043 Y2.413 E0.19166
G1 X-13.594 Y2.626 E0.20555
G1 X-13.887 Y2.805 E0.21362
G1 X-13.94 Y2.925 E0.21671
G1 X-13.898 Y3.53 E0.23097
G1 F1515.2 X-13.913 Y4.063 E0.24586
G1 F1185.3 X-14.043 Y4.31 E0.25583
G1 X-13.776 Y4.394 E0.26582
G1 F1515.2 X-13.494 Y4.802 E0.27968
G1 F1800 X-13.452 Y4.949 E0.28327
G1 X-13.336 Y5.132 E0.28837
G1 X-13.25 Y5.373 E0.29438
G1 X-12.956 Y5.993 E0.31052
G1 X-12.794 Y6.541 E0.32396
G1 X-12.433 Y7.06 E0.33882
G1 X-12.133 Y7.597 E0.35328
G1 X-11.817 Y8.108 E0.36741
G1 X-11.655 Y8.351 E0.37428
G1 X-11.53 Y8.436 E0.37783
G1 X-11.321 Y8.664 E0.3851
G1 X-11.205 Y8.976 E0.39293
G1 X-11.228 Y9.234 E0.39902
G1 X-11.015 Y9.269 E0.4041
G1 X-10.637 Y9.496 E0.41446
G1 X-10.329 Y9.909 E0.42658
G1 X-10.205 Y10.227 E0.4346
G1 X-9.772 Y10.398 E0.44555
G1 X-9.527 Y10.612 E0.4532
G1 X-9.386 Y10.589 E0.45656
G1 X-8.933 Y10.337 E0.46875
G1 X-8.26 Y10.013 E0.48631
G1 X-7.651 Y9.569 E0.50403
G1 X-7.048 Y9.284 E0.51971
G1 X-6.457 Y8.944 E0.53575
G1 X-5.945 Y8.557 E0.55084
G1 X-5.456 Y8.369 E0.56315
G1 X-5.243 Y8.281 E0.56857
G1 X-5.032 Y8.099 E0.57513
G1 X-5.75 Y7.668 E0.59482
G1 X-6.138 Y7.296 E0.60746
G1 X-6.281 Y7.149 E0.61228
G1 X-6.725 Y6.831 E0.62512
G1 X-6.98 Y6.585 E0.63345
G1 X-7.186 Y6.217 E0.64337
G1 X-7.413 Y6.039 E0.65015
G1 X-7.747 Y5.657 E0.66208
G1 X-7.958 Y5.203 E0.67385
G1 X-8.243 Y4.79 E0.68565
G1 X-8.561 Y4.281 E0.69976
G0 F3600 X-8.742 Y3.979
G0 X-8.748 Y3.957
G0 X-9.54 Y3.968
;TYPE:WALL-INNER
G1 F1800 X-9.66 Y3.431 E0.7127
G1 X-9.939 Y2.629 E0.73267
G1 X-10.097 Y1.991 E0.74812
G1 X-10.187 Y1.544 E0.75884
G1 X-10.626 Y1.806 E0.77086
G1 X-11.032 Y2.12 E0.78293
G1 X-11.52 Y2.326 E0.79539
G1 X-11.818 Y2.461 E0.80308
G1 X-12.26 Y2.759 E0.81561
G1 X-12.666 Y3.064 E0.82755
G1 X-13.149 Y3.264 E0.83984
G1 X-13.173 Y3.917 E0.85521
G1 X-13.211 Y4 E0.85736
G1 X-12.988 Y4.186 E0.86418
G1 X-12.798 Y4.516 E0.87314
G1 X-12.593 Y5.008 E0.88567
G1 X-12.325 Y5.527 E0.8994
G1 X-12.144 Y6.077 E0.91302
G1 X-12.036 Y6.287 E0.91857
G1 X-11.666 Y6.876 E0.93493
G1 X-11.421 Y7.34 E0.94726
G1 X-11.147 Y7.768 E0.95921
G1 X-10.749 Y8.162 E0.97238
G1 X-10.505 Y8.665 E0.98553
G1 X-10.149 Y8.926 E0.99591
G1 X-9.773 Y9.373 E1.00964
G1 X-9.603 Y9.644 E1.01716
G1 X-9.414 Y9.739 E1.02214
G1 X-8.731 Y9.407 E1.03999
G1 X-8.148 Y9.002 E1.05668
G1 X-7.563 Y8.695 E1.07222
G1 X-7.052 Y8.423 E1.08583
G1 X-6.475 Y8.019 E1.10239
G1 X-6.836 Y7.698 E1.11375
G1 X-7.374 Y7.265 E1.12999
G1 X-7.635 Y6.951 E1.13959
G1 X-7.773 Y6.72 E1.14592
G1 X-8.149 Y6.339 E1.1585
G1 X-8.436 Y5.963 E1.16962
G1 X-8.667 Y5.531 E1.18114
G1 X-9.009 Y4.974 E1.19651
G1 X-9.367 Y4.409 E1.21224
G1 X-9.54 Y3.968 E1.22338
G0 F3600 X-9.827 Y5.086
G1 F1800 X-10.09 Y4.644 E1.23547
G1 X-10.264 Y4.161 E1.24754
G1 X-10.364 Y3.691 E1.25884
G1 X-10.65 Y2.868 E1.27933
G1 X-10.675 Y2.78 E1.28148
G1 X-11.242 Y3.024 E1.29599
G1 X-11.476 Y3.135 E1.30208
G1 X-11.9 Y3.428 E1.3142
G1 X-12.372 Y3.759 E1.32776
G1 X-12.115 Y4.205 E1.33986
G1 X-11.902 Y4.688 E1.35227
G1 X-11.619 Y5.273 E1.36755
G1 X-11.429 Y5.848 E1.38179
G1 X-11.152 Y6.279 E1.39384
G1 X-10.895 Y6.728 E1.406
G1 X-10.624 Y7.191 E1.41862
G1 X-10.14 Y7.724 E1.43555
G1 X-9.89 Y8.186 E1.4479
G1 X-9.662 Y8.355 E1.45457
G1 X-9.25 Y8.825 E1.46927
G1 X-8.993 Y8.691 E1.47608
G1 X-8.508 Y8.338 E1.49019
G1 X-7.879 Y8.014 E1.50682
G1 X-7.73 Y7.945 E1.51068
G1 X-8.095 Y7.601 E1.52248
G1 X-8.404 Y7.171 E1.53493
G1 X-8.842 Y6.688 E1.55026
G1 X-9.147 Y6.217 E1.56345
G1 X-9.432 Y5.722 E1.57688
G1 X-9.827 Y5.086 E1.59449
G0 F3600 X-11.2 Y4.029
G1 F1370.6 X-11.005 Y4.601 E1.61315
G1 F1443.9 X-10.752 Y5.2 E1.63221
G1 F1384.6 X-10.401 Y5.821 E1.65401
G1 F1326.1 X-10.109 Y6.316 E1.67236
G1 F1324.8 X-9.884 Y6.713 E1.68693
G1 F1401.9 X-9.465 Y7.239 E1.70724
G1 F1425.6 X-9.1 Y7.698 E1.72465
G0 F3600 X-10.844 Y8.526
G0 X-12.128 Y9.356
;TYPE:WALL-OUTER
G1 F1313.2 X-11.798 Y9.713 E1.74032
G1 F1310.7 X-11.558 Y10.098 E1.75497
G1 F1443.9 X-11.246 Y10.398 E1.76765
G1 F1427.1 X-10.975 Y10.702 E1.77973
G1 F1317.1 X-10.81 Y10.809 E1.78605
G0 F3600 X-10.621 Y8.954
G0 X-14.203 Y5.74
G1 F1422.6 X-14.317 Y5.528 E1.79321
G1 F1388.9 X-14.416 Y5.202 E1.80359
G0 F3600 X-14.043 Y4.31
G1 F1006 X-14.427 Y4.469 E1.82108
G1 F1131.6 X-14.762 Y3.95 E1.84418
G1 F1404.8 X-14.855 Y3.52 E1.85744
G0 F3600 X-13.408 Y3.699
G0 X-11.697 Y7.512
G0 X-3.146 Y13.526
G0 X-3.52 Y13.597
G1 F1634.4 X-3.347 Y14.108 E1.87141
G1 F1436.2 X-3.209 Y14.44 E1.88201
G1 X-3.099 Y14.132 E1.89164
G1 F1634.4 X-2.826 Y13.69 E1.9051
G1 F1670.8 X-2.722 Y13.507 E1.91043
G1 F1457.9 X-2.358 Y13.216 E1.92396
G1 F1523.7 X-3.151 Y13.1 E1.94622
G1 F1757.8 X-3.628 Y13.099 E1.9577
G1 X-3.52 Y13.597 E1.96997
G0 F3600 X-3.4 Y13.952
G0 X-3.166 Y14.671
G1 F1539.3 X-3.147 Y15.22 E1.98508
G1 F1785.7 X-3.071 Y15.639 E1.99517
G1 F1569.8 X-2.824 Y16.289 E2.01392
G1 F1475.4 X-2.716 Y15.939 E2.02443
G1 F1713.2 X-2.472 Y15.428 E2.03841
G1 F1778.7 X-2.431 Y15.307 E2.04145
G1 F1571.6 X-2.22 Y15.122 E2.04901
G1 F1407.7 X-2.038 Y15.056 E2.05483
G1 F1511.8 X-2.584 Y14.956 E2.07037
G1 F1636.4 X-2.935 Y14.846 E2.07989
G1 F1467.4 X-3.166 Y14.671 E2.08825
G0 F3600 X-3.154 Y15.046
G0 X-2.038 Y15.056
G1 F1362.3 X-1.956 Y15.053 E2.09079
G1 F1366.4 X2.113 Y15.054 E2.21683
G0 F3600 X2.639 Y15.51
G1 F1654.4 X2.932 Y16.039 E2.2323
G1 F1470.6 X2.996 Y16.31 E2.24032
G1 F1573.4 X3.272 Y15.543 E2.26224
G1 F1666.7 X3.334 Y15.032 E2.27531
G1 F1465.8 X3.359 Y14.666 E2.28591
G1 X3.106 Y14.856 E2.29504
G1 F1566.1 X2.519 Y14.988 E2.3113
G1 F1462.6 X2.113 Y15.054 E2.3232
G1 F1413.6 X2.3 Y15.124 E2.32918
G1 F1609.1 X2.639 Y15.51 E2.3427
G0 F3600 X2.82 Y15.838
G0 X2.533 Y16.618
G1 F1713.2 X2.23 Y16.745 E2.35081
G1 F1418.1 X1.957 Y16.81 E2.35919
G1 F1446.9 X2.24 Y16.991 E2.36901
G1 F1644.3 X2.529 Y17.335 E2.38058
G1 F1483.5 X2.736 Y17.809 E2.39533
G1 X2.891 Y17.307 E2.41032
G1 F1819.4 X2.976 Y17.022 E2.41724
G1 F1630.4 X2.975 Y16.39 E2.43365
G1 F1523.7 X2.69 Y16.593 E2.44337
G1 F1804.8 X2.533 Y16.618 E2.44709
G0 F3600 X2.23 Y16.745
G0 X2.185 Y16.755
G0 X1.957 Y16.81
G1 F1326.1 X-1.8 Y16.811 E2.567
G1 F1320.9 X-1.899 Y16.816 E2.57018
G0 F3600 X-2.806 Y16.372
G1 F1571.6 X-2.869 Y16.989 E2.58688
G1 F1757.8 X-2.805 Y17.394 E2.59675
G1 F1501.7 X-2.606 Y17.882 E2.6116
G1 F1446.9 X-2.519 Y17.594 E2.6204
G1 F1590.1 X-2.16 Y17.089 E2.6369
G1 F1473.8 X-1.931 Y16.832 E2.64678
G1 F1327.4 X-1.899 Y16.816 E2.64792
G1 F1520.3 X-2.371 Y16.638 E2.66197
G1 F1634.4 X-2.663 Y16.519 E2.67013
G1 F1430.1 X-2.806 Y16.372 E2.6762
G0 F3600 X-2.844 Y16.745
G0 X-2.585 Y17.966
G1 F1534.1 X-2.565 Y18.571 E2.6929
G1 F1826.8 X-2.543 Y18.744 E2.69694
G1 F1557.1 X-2.251 Y19.44 E2.71746
G1 F1407.7 X-2.183 Y19.191 E2.72522
G1 F1549.9 X-1.868 Y18.665 E2.74196
G1 F1451.6 X-1.575 Y18.419 E2.75311
G1 X-1.957 Y18.328 E2.76456
G1 F1733 X-2.096 Y18.236 E2.76863
G1 F1652.4 X-2.436 Y18.126 E2.77779
G1 F1409.2 X-2.585 Y17.966 E2.78435
G0 F3600 X-2.573 Y18.341
G0 X-1.575 Y18.419
G1 F1326.1 X-1.487 Y18.416 E2.78716
G1 F1331.4 X1.644 Y18.414 E2.8867
G0 F3600 X2.436 Y19.45
G1 F1546.4 X2.699 Y18.83 E2.90513
G1 F1836.7 X2.752 Y18.639 E2.9097
G1 F1628.5 X2.742 Y18.132 E2.92288
G1 F1369.2 X2.726 Y17.897 E2.93016
G1 F1424.1 X2.451 Y18.175 E2.94178
G1 F1508.4 X1.863 Y18.368 E2.95915
G1 F1391.8 X1.644 Y18.414 E2.96595
G1 F1450.1 X1.998 Y18.615 E2.97783
G1 F1586.4 X2.319 Y19.11 E2.99357
G1 F1459.5 X2.436 Y19.45 E3.004
G0 F3600 X2.582 Y19.105
G0 X2.222 Y19.691
G1 F1396.1 X1.613 Y19.966 E3.02426
G1 F1234 X1.448 Y20.026 E3.03028
G1 F1313.2 X1.711 Y20.232 E3.04105
G1 F1652.4 X1.794 Y20.408 E3.04603
G1 F1706.7 X2.034 Y20.663 E3.05471
G1 F1493.4 X2.12 Y20.992 E3.06435
G1 F1599.5 X2.378 Y20.314 E3.08355
G1 F1658.5 X2.405 Y19.806 E3.09653
G1 F1419.6 X2.413 Y19.534 E3.10464
G1 X2.222 Y19.691 E3.11201
G0 F3600 X1.881 Y19.845
G0 X1.448 Y20.026
G1 F1178 X1.326 Y20.019 E3.1164
G1 F1184.2 X-1.179 Y20.021 E3.20593
G1 F1180.1 X-1.278 Y20.025 E3.20949
G0 F3600 X-1.601 Y20.385
G1 F1590.1 X-1.497 Y20.181 E3.21558
G1 F1278.4 X-1.278 Y20.025 E3.22448
G1 F1350 X-1.682 Y19.862 E3.23814
G1 F1704.5 X-1.757 Y19.787 E3.24077
G1 F1696 X-1.935 Y19.754 E3.24529
G1 F1433.1 X-2.23 Y19.525 E3.25632
G1 F1480.3 X-2.23 Y20.071 E3.27193
G1 F1753.2 X-2.22 Y20.234 E3.27587
G1 F1527.1 X-1.97 Y20.675 E3.28992
G1 F1301.8 X-1.954 Y20.711 E3.2912
G1 F1320.9 X-1.913 Y20.626 E3.29423
G1 F1562.5 X-1.601 Y20.385 E3.30491
G0 F3600 X-1.497 Y20.181
G0 X-1.377 Y20.096
G0 X-1.954 Y20.711
G1 F1300.6 X-1.95 Y21.018 E3.3149
G0 F3600 X-1.439 Y21.832
G1 F1670.8 X-1.301 Y21.632 E3.32105
G1 F1393.2 X-1.106 Y21.506 E3.32811
G1 F1401.9 X-1.351 Y21.439 E3.33578
G1 F1634.4 X-1.573 Y21.284 E3.34279
G1 F1698.1 X-1.706 Y21.227 E3.34639
G1 F1451.6 X-1.95 Y21.018 E3.35576
G1 F1513.5 X-2.052 Y21.534 E3.37047
G1 F1836.7 X-2.049 Y21.674 E3.3737
G1 F1532.3 X-1.761 Y22.257 E3.39166
G1 F1478.6 X-1.539 Y21.898 E3.40374
G1 F1819.4 X-1.439 Y21.832 E3.40653
G0 F3600 X-1.301 Y21.632
G0 X-1.19 Y21.56
G0 X-1.106 Y21.506
G1 F1315.8 X-1.018 Y21.503 E3.40936
G1 F1320.9 X1.174 Y21.503 E3.47959
G0 F3600 X1.632 Y21.311
G1 F1739.7 X1.487 Y21.42 E3.484
G1 F1439.2 X1.174 Y21.503 E3.49353
G1 X1.414 Y21.659 E3.50194
G1 F1728.6 X1.541 Y21.88 E3.50819
G1 F1472.2 X1.878 Y22.188 E3.52131
G1 F1451.6 X2.103 Y21.695 E3.53711
G1 F1590.1 X2.101 Y21.072 E3.55369
G1 F1518.6 X1.855 Y21.248 E3.56212
G1 F1785.7 X1.632 Y21.311 E3.56762
G0 F3600 X1.487 Y21.42
G0 X1.3 Y21.469
G0 X1.674 Y22.461
G1 F1632.4 X1.392 Y22.598 E3.57574
G1 F1638.3 X1.283 Y22.777 E3.58116
G1 F1363.6 X1.174 Y22.838 E3.58504
G1 F1448.5 X1.348 Y23.051 E3.59307
G1 F1762.4 X1.374 Y23.141 E3.59532
G1 F1755.5 X1.558 Y23.336 E3.60179
G1 F1510.1 X1.671 Y23.665 E3.61154
G1 F1622.6 X1.955 Y22.953 E3.63153
G1 F1527.1 X1.897 Y22.394 E3.64711
G1 F1230.6 X1.869 Y22.284 E3.65101
G1 F1299.3 X1.674 Y22.461 E3.65959
G0 F3600 X1.392 Y22.598
G0 X1.36 Y22.651
G0 X1.174 Y22.838
G1 F1313.2 X1.019 Y22.826 E3.6646
G1 F1328.7 X-.753 Y22.826 E3.72104
G1 F1319.6 X-.911 Y22.834 E3.72611
G0 F3600 X-1.404 Y23.393
G1 F1588.2 X-1.104 Y22.993 E3.73944
G1 F1451.6 X-.951 Y22.818 E3.74622
G1 F1506.7 X-1.248 Y22.688 E3.75532
G1 F1826.8 X-1.308 Y22.616 E3.75749
G1 F1851.9 X-1.382 Y22.621 E3.75919
G1 F1562.5 X-1.592 Y22.526 E3.76543
G1 F1330 X-1.719 Y22.403 E3.77106
G1 F1534.1 X-1.784 Y23.013 E3.78798
G1 F1632.4 X-1.488 Y23.674 E3.80676
G1 F1495 X-1.404 Y23.393 E3.81506
G0 F3600 X-1.179 Y23.093
G0 X-.79 Y25.644
G0 X-.636 Y24.18
G1 F1300.6 X0.034 Y24.18 E3.83687
G1 F1309.4 X0.704 Y24.18 E3.85852
G1 F1295.6 X0.871 Y24.193 E3.864
G0 F3600 X1.178 Y23.965
G1 F1670.8 X1.016 Y24.134 E3.86993
G1 F1354.1 X0.871 Y24.193 E3.87482
G1 F1366.4 X1.009 Y24.311 E3.88044
G1 F1652.4 X1.138 Y24.518 E3.88669
G1 F1814.5 X1.223 Y24.579 E3.88913
G1 F1535.8 X1.403 Y24.867 E3.89849
G1 F1577.1 X1.627 Y24.418 E3.91196
G1 F1912.2 X1.671 Y24.323 E3.91427
G1 F1640.3 X1.651 Y23.745 E3.9292
G1 F1537.6 X1.395 Y23.908 E3.93755
G1 F1836.7 X1.178 Y23.965 E3.94272
G0 F3600 X1.016 Y24.134
G0 X0.885 Y24.187
G0 X0.892 Y25.686
G0 X-.744 Y25.709
G0 X-1.206 Y24.919
G1 F1456.3 X-.794 Y24.329 E3.96363
G1 F1404.8 X-.636 Y24.18 E3.97018
G1 X-.863 Y24.103 E3.9774
G1 F1683.3 X-1.06 Y23.966 E3.98343
G1 F1753.2 X-1.235 Y23.91 E3.98787
G1 F1510.1 X-1.466 Y23.754 E3.99568
G1 F1593.9 X-1.475 Y24.265 E4.00925
G1 F1928.6 X-1.479 Y24.351 E4.01114
G1 F1634.4 X-1.206 Y24.919 E4.02746
G0 F3600 X-.992 Y24.612
G0 X-.744 Y25.709
G0 X-1.094 Y26.576
G1 F1800 X-1.081 Y26.644 E4.02909
G1 X-.466 Y26.67 E4.04356
G1 X0.913 Y26.669 E4.07599
G1 X1.136 Y26.65 E4.08125
G1 X1.257 Y26.11 E4.09426
G1 F1785.7 X1.342 Y25.671 E4.10486
G1 F1546.4 X1.374 Y25.001 E4.12322
G1 F1439.2 X1.17 Y25.186 E4.13131
G1 F1644.3 X0.703 Y25.267 E4.14351
G1 F1800 X-.495 Y25.266 E4.17168
G1 F1696 X-.872 Y25.221 E4.18116
G1 F1480.3 X-1.185 Y25 E4.19211
G1 F1558.9 X-1.183 Y25.803 E4.21391
G1 F1800 X-1.094 Y26.576 E4.23221
G0 F3600 X-1.081 Y26.644
G0 X-.775 Y26.656
G0 X-.466 Y25.968
;TYPE:WALL-INNER
G1 F2064.2 X0.57 Y25.968 E4.25345
G0 F3600 X3.333 Y13.449
G0 X2.965 Y13.582
;TYPE:WALL-OUTER
G1 F1706.7 X3.097 Y13.852 E4.26091
G1 F1562.5 X3.368 Y14.285 E4.27474
G1 F1383.2 X3.403 Y14.433 E4.2794
G1 F1520.3 X3.667 Y13.79 E4.29875
G1 F1753.2 X3.784 Y13.098 E4.31569
G1 F1717.6 X3.169 Y13.119 E4.33085
G1 F1480.3 X2.571 Y13.225 E4.34822
G1 F1366.4 X2.728 Y13.306 E4.35369
G1 F1530.6 X2.965 Y13.582 E4.36375
G0 F3600 X3.097 Y13.852
G0 X3.136 Y13.915
G0 X2.571 Y13.225
G1 F1341.9 X2.416 Y13.213 E4.36865
G1 F1358.1 X0.072 Y13.213 E4.4417
G1 F1356.8 X-2.272 Y13.213 E4.51482
G1 F1350 X-2.358 Y13.216 E4.51751
G0 F3600 X-3.151 Y13.457
G0 X-.356 Y-13.885
G0 X-.754 Y-9.541
G1 F1800 X0.149 Y-9.563 E4.53875
G1 X1.216 Y-9.487 E4.5639
G1 X2.193 Y-9.286 E4.58736
G1 X2.919 Y-9.045 E4.60534
G1 X3.421 Y-8.861 E4.61792
G1 X3.854 Y-8.773 E4.62831
G1 X4.543 Y-8.357 E4.64723
G1 X4.543 Y-13.456 E4.76712
G1 X4.484 Y-13.62 E4.77122
G1 F1599.5 X4.284 Y-13.875 E4.7798
G1 F1352.7 X4.228 Y-14.112 E4.78742
G1 F1380.4 X3.957 Y-13.925 E4.79751
G1 F1638.3 X3.402 Y-13.874 E4.81191
G1 F1800 X2.876 Y-13.966 E4.82447
G1 X2.758 Y-14.026 E4.82758
G1 X2.179 Y-14.116 E4.84136
G1 X2.041 Y-14.167 E4.84481
G1 X1.136 Y-14.251 E4.86619
G1 X0.287 Y-14.309 E4.8862
G1 X-.309 Y-14.309 E4.90021
G1 X-1.072 Y-14.265 E4.91818
G1 X-1.615 Y-14.204 E4.93103
G1 X-2.14 Y-14.135 E4.94348
G1 X-2.653 Y-14.035 E4.95577
G1 X-3.176 Y-13.896 E4.96849
G1 X-3.588 Y-13.869 E4.9782
G1 F1696 X-3.959 Y-13.948 E4.98767
G1 F1508.4 X-4.162 Y-14.055 E4.9941
G1 F1400.4 X-4.221 Y-14.13 E4.99699
G1 X-4.224 Y-14.035 E4.99986
G1 F1527.1 X-4.343 Y-13.804 E5.00706
G1 F1719.7 X-4.526 Y-13.56 E5.01457
G1 F1800 X-4.542 Y-12.871 E5.03077
G1 X-4.542 Y-8.397 E5.13597
G1 X-4.034 Y-8.715 E5.15006
G1 X-3.518 Y-8.85 E5.1626
G1 X-2.438 Y-9.207 E5.18935
G1 X-1.809 Y-9.372 E5.20464
G1 X-1.275 Y-9.465 E5.21739
G1 X-.754 Y-9.541 E5.22977
G0 F3600 X-.379 Y-9.55
G0 X-.415 Y-10.052
G0 X-3.554 Y-13.119
;TYPE:WALL-INNER
G1 F1800 X-3.792 Y-13.163 E5.23546
G1 X-3.792 Y-9.558 E5.32022
G1 X-3.306 Y-9.711 E5.3322
G1 X-2.696 Y-9.913 E5.34731
G1 X-2.03 Y-10.091 E5.36352
G1 X-1.405 Y-10.204 E5.37845
G1 X-.808 Y-10.289 E5.39263
G1 X0.159 Y-10.313 E5.41538
G1 X0.695 Y-10.3 E5.42798
G1 X1.306 Y-10.232 E5.44244
G1 X1.846 Y-10.123 E5.45539
G1 X2.346 Y-10.02 E5.4674
G1 X3.157 Y-9.756 E5.48745
G1 X3.623 Y-9.588 E5.4991
G1 X3.793 Y-9.563 E5.50314
G1 X3.793 Y-13.16 E5.58772
G1 X3.472 Y-13.128 E5.5953
G1 X3.143 Y-13.145 E5.60305
G1 X2.654 Y-13.25 E5.61481
G1 X2.33 Y-13.333 E5.62267
G1 X1.75 Y-13.43 E5.6365
G1 X1.052 Y-13.505 E5.653
G1 X0.254 Y-13.559 E5.67181
G1 X-.305 Y-13.559 E5.68496
G1 X-1.025 Y-13.517 E5.70191
G1 X-1.527 Y-13.459 E5.7138
G1 X-2.432 Y-13.314 E5.73535
G1 X-2.984 Y-13.171 E5.74875
G1 X-3.554 Y-13.119 E5.76221
G0 F3600 X-4.221 Y-14.13
;TYPE:WALL-OUTER
G1 F1322.2 X-4.301 Y-14.366 E5.77019
G1 F1200 X-4.315 Y-14.567 E5.7773
G1 F1271.2 X-3.933 Y-14.766 E5.79164
G1 F1451.6 X-3.299 Y-14.928 E5.81072
G1 F1448.5 X-2.635 Y-15.089 E5.83068
G1 F1456.3 X-1.947 Y-15.216 E5.85101
G0 F3600 X-1.792 Y-13.692
G0 X1.813 Y-13.69
G0 X1.961 Y-15.207
G1 F1439.2 X2.595 Y-15.098 E5.86993
G1 F1442.3 X3.315 Y-14.935 E5.89159
G1 F1437.7 X3.813 Y-14.795 E5.90682
G1 F1370.6 X4.139 Y-14.663 E5.91768
G1 F1206.4 X4.308 Y-14.55 E5.92481
G1 F1190.5 X4.264 Y-14.215 E5.93683
G1 F1273.6 X4.228 Y-14.112 E5.94045
G0 F3600 X4.016 Y-13.5
G0 X0.17 Y-11.063
;TYPE:WALL-INNER
G1 F1800 X0.777 Y-11.046 E5.95473
G1 X1.385 Y-10.978 E5.96911
