;FLAVOR:Marlin
;TIME:179
;Filament used: 0.119383m
;Layer height: 0.2
;MINX:-36.111
;MINY:-34.499
;MINZ:0.2
;MAXX:36.41
;MAXY:34.67
;MAXZ:0.4
;Generated with Cura_SteamEngine 5.0.0
M104 S200
M105
M109 S200
M82 ;absolute extrusion mode

G92 E0
G92 E0
;LAYER_COUNT:2
;LAYER:0
M107
;MESH:RLlogo.png
G0 F3600 X-4.58 Y4.45 Z0.2
;TYPE:WALL-OUTER
G1 F1525.4 X-3.641 Y4.458 E0.02605
G1 X-3.227 Y4.496 E0.03759
G1 X-3.432 Y4.047 E0.05128
G1 X-3.803 Y3.458 E0.0706
G1 X-4.152 Y3.135 E0.08379
G1 X-4.386 Y3.88 E0.10546
G1 X-4.58 Y4.45 E0.12216
G0 F3600 X-4.205 Y4.453
G0 X-4.051 Y4.075
G0 X-3.596 Y6.71
G0 X-3.967 Y7.028
G1 F1544.6 X-3.692 Y7.594 E0.13941
G1 X-3.342 Y7.233 E0.15318
G1 X-3.173 Y6.953 E0.16214
G1 X-3.004 Y6.358 E0.17909
G1 X-3.595 Y6.373 E0.19529
G1 X-4.181 Y6.443 E0.21146
G1 X-4.319 Y6.462 E0.21528
G1 X-3.967 Y7.028 E0.23354
G0 F3600 X-3.804 Y7.365
G0 X-3.583 Y6.946
G0 X-6.129 Y7.727
G1 F1912.2 X-5.634 Y8.02 E0.24628
G1 X-5.31 Y8.136 E0.25389
G1 X-5.103 Y8.167 E0.25852
G1 X-5.384 Y7.734 E0.26995
G1 X-5.699 Y7.314 E0.28157
G1 X-6.019 Y6.815 E0.29469
G1 X-6.077 Y6.813 E0.29598
G1 X-6.695 Y7.288 E0.31323
G1 X-6.129 Y7.727 E0.32908
G0 F3600 X-5.807 Y7.918
G0 X-6.698 Y8.572
G0 X-7.505 Y7.968
G0 X-8.67 Y6.109
G0 X-8.994 Y3.959
G0 X-7.954 Y3.959
G1 F1936.9 X-7.98 Y4.594 E0.34297
G1 X-7.973 Y4.878 E0.34918
G1 X-7.841 Y5.429 E0.36156
G1 X-7.656 Y5.829 E0.37119
G1 X-7.17 Y5.338 E0.38628
G1 X-7.117 Y5.227 E0.38897
G1 X-7.452 Y4.67 E0.40318
G1 X-7.871 Y4.076 E0.41906
G1 X-7.954 Y3.959 E0.42219
G0 F3600 X-7.969 Y4.334
G0 X-6.417 Y3.058
G0 X-6.828 Y3.064
G1 F1573.4 X-6.399 Y3.613 E0.44094
G1 X-6.26 Y3.739 E0.44598
G1 X-6.071 Y3.09 E0.46417
G1 X-5.774 Y2.429 E0.48366
G1 X-6.581 Y2.431 E0.50537
G1 X-7.084 Y2.632 E0.51994
G1 X-7.123 Y2.654 E0.52114
G1 X-6.828 Y3.064 E0.53473
G0 F3600 X-6.597 Y3.359
G0 X-6.429 Y2.979
G0 X-.622 Y6.678
G1 F1875 X-.66 Y7.248 E0.54762
G1 X-.795 Y7.816 E0.5608
G1 X-.486 Y7.346 E0.5735
G1 X-.19 Y6.791 E0.5877
G1 X0.072 Y6.323 E0.5998
G1 X0.306 Y5.822 E0.61228
G1 X0.502 Y5.542 E0.62
G1 X-.363 Y5.838 E0.64064
G1 X-.615 Y5.962 E0.64698
G1 X-.622 Y6.678 E0.66314
G0 F3600 X-.646 Y7.052
G0 X-2.681 Y10.352
G1 F3488.4 X-2.787 Y10.447 E0.66487
G1 F2824.3 X-3.287 Y10.863 E0.67461
G0 F3600 X-.495 Y9.692
G1 F1454.7 X-0.08 Y9.275 E0.69173
G1 F1388.9 X-0.059 Y9.252 E0.69268
G0 F3600 X-.586 Y10.99
G0 X-3.469 Y12.913
G0 X-3.617 Y13.925
G1 F1925.8 X-3.806 Y13.947 E0.69686
G1 F1719.7 X-4.39 Y14.093 E0.71167
G1 F1461 X-5.02 Y14.228 E0.73034
G0 F3600 X-5.975 Y14.624
G1 F3191.5 X-5.99 Y14.369 E0.73373
G1 X-5.975 Y14.624 E0.73711
G1 X-6.08 Y14.875 E0.74072
G1 F3214.3 X-6.131 Y14.875 E0.74139
G1 X-6.157 Y14.92 E0.74208
G1 X-6.132 Y14.965 E0.74276
G1 X-6.08 Y14.965 E0.74344
G1 X-6.054 Y14.92 E0.74412
G0 F3600 X-6.895 Y14.683
G1 F2678.6 X-6.936 Y14.551 E0.74631
G0 F3600 X-7.61 Y13.481
G1 F3229.7 X-6.869 Y13.274 E0.75639
G1 F2657.5 X-6.597 Y13.139 E0.76123
G0 F3600 X-6.313 Y11.899
G1 F1387.5 X-6.739 Y12.156 E0.7764
G1 F1276 X-6.553 Y12.381 E0.78609
G1 F1693.9 X-6.446 Y12.804 E0.79699
G1 F2198.7 X-6.597 Y13.139 E0.80406
G1 F2106.1 X-6.159 Y12.743 E0.81593
G1 F1826.8 X-5.855 Y12.371 E0.82706
G1 F1795.2 X-5.611 Y11.915 E0.83925
G1 X-5.52 Y11.788 E0.84293
G1 X-6.21 Y11.882 E0.85935
G1 X-6.313 Y11.899 E0.86181
G0 F3600 X-6.634 Y12.092
G0 X-8.378 Y12.093
G0 X-8.596 Y11.649
G1 F1440.8 X-9.229 Y11.38 E0.88202
G1 F1488.4 X-9.627 Y10.978 E0.8981
G1 F1885.5 X-10.047 Y10.607 E0.91068
G1 F2096.3 X-10.475 Y10.236 E0.92212
G1 F2021 X-10.959 Y9.813 E0.93558
G1 F1939.7 X-11.109 Y9.721 E0.93942
G1 F1500 X-11.833 Y9.927 E0.96066
G1 F1204.3 X-11.884 Y9.944 E0.96255
G1 F1320.9 X-11.561 Y10.147 E0.97477
G1 F1685.4 X-11.386 Y10.36 E0.98169
G1 F2011.9 X-10.925 Y10.699 E0.99373
G1 F2086.6 X-10.48 Y11.09 E1.00575
G1 F1753.2 X-10.106 Y11.598 E1.02098
G1 F1404.8 X-10.002 Y11.925 E1.03131
G1 F1309.4 X-10.063 Y12.257 E1.04223
G1 X-9.686 Y12.338 E1.05469
G1 F1440.8 X-8.813 Y12.433 E1.08049
G1 F1693.9 X-8.303 Y12.481 E1.09328
G1 F1785.7 X-7.704 Y12.477 E1.10748
G1 F1611 X-7.403 Y12.368 E1.11589
G1 F1293.1 X-7.03 Y12.144 E1.13013
G1 X-7.399 Y12.001 E1.14309
G1 F1654.4 X-7.817 Y11.786 E1.15511
G1 F1839.2 X-8.182 Y11.75 E1.16355
G1 F1693.9 X-8.596 Y11.649 E1.1742
G0 F3600 X-8.941 Y11.503
G0 X-9.167 Y11.826
G0 X-13.232 Y10.051
G0 X-11.884 Y9.944
G1 F1219.5 X-12.473 Y9.991 E1.19471
G1 F1253.5 X-12.567 Y10.003 E1.19791
G0 F3600 X-13.312 Y10.06
G0 X-15.131 Y9.585
G0 X-15.665 Y9.322
G1 F1319.6 X-15.988 Y9.361 E1.20834
G1 F1355.4 X-15.644 Y9.621 E1.2218
G1 F1642.3 X-15.315 Y10.05 E1.23574
G1 F1800 X-15.117 Y10.552 E1.24843
G1 X-14.786 Y10.974 E1.26104
G1 F1624.5 X-14.64 Y11.341 E1.27133
G1 F1380.4 X-14.649 Y11.623 E1.27998
G1 X-14.397 Y11.478 E1.28889
G1 F1624.5 X-13.98 Y11.431 E1.29982
G1 F1800 X-13.4 Y11.641 E1.31433
G1 X-13.354 Y11.658 E1.31548
G1 X-13.374 Y11.22 E1.32579
G1 X-13.306 Y11.03 E1.33054
G1 X-13.302 Y10.787 E1.33625
G1 X-13.129 Y10.476 E1.34462
G1 F1558.9 X-12.745 Y10.12 E1.35883
G1 F1310.7 X-12.567 Y10.003 E1.36571
G1 X-12.752 Y9.931 E1.37212
G1 F1520.3 X-13.03 Y9.732 E1.38164
G1 F1748.7 X-13.378 Y9.218 E1.39666
G1 F1800 X-13.524 Y9.102 E1.40105
G1 X-14.036 Y8.894 E1.41404
G1 X-14.185 Y8.711 E1.41959
G1 X-14.363 Y8.825 E1.42456
G1 X-14.982 Y9.033 E1.43992
G1 F1774 X-15.443 Y9.219 E1.45178
G1 F1569.8 X-15.665 Y9.322 E1.45838
G0 F3600 X-15.988 Y9.361
G0 X-15.949 Y9.391
G0 X-16.011 Y9.342
G1 F1262.9 X-16.39 Y9.348 E1.47108
G1 F1313.2 X-16.863 Y9.505 E1.48714
G1 F1330 X-17.331 Y9.826 E1.5052
G1 F1359.5 X-17.702 Y10.191 E1.5214
G0 F3600 X-15.201 Y9.555
G0 X-14.649 Y11.623
G1 F1296.8 X-14.717 Y11.722 E1.52532
G1 F1304.3 X-15.057 Y12.249 E1.54567
G1 F1369.2 X-15.417 Y12.763 E1.56507
G0 F3600 X-14.329 Y11.102
G0 X-14.028 Y10.706
;TYPE:WALL-INNER
G1 F1928.6 X-13.903 Y10.363 E1.57308
G1 X-13.71 Y10.044 E1.58126
G1 X-13.908 Y9.739 E1.58924
G1 F1925.8 X-14.309 Y9.572 E1.59879
G1 X-14.686 Y9.699 E1.60753
G1 X-14.485 Y10.171 E1.61881
G1 F1928.6 X-14.12 Y10.676 E1.63248
G1 X-14.071 Y10.705 E1.63373
G1 X-14.028 Y10.706 E1.63468
G0 F3600 X-12.325 Y11.466
G0 X-11.616 Y12.37
G0 X-8.32 Y16.31
G0 X-4.572 Y18.173
;TYPE:WALL-OUTER
G1 F1802.4 X-4.327 Y17.985 E1.64193
G1 X-3.817 Y17.812 E1.65457
G1 F1800 X-2.864 Y17.467 E1.6784
G1 X-1.792 Y17.095 E1.70509
G1 X-1.383 Y16.946 E1.71532
G1 X-1.991 Y16.542 E1.73248
G1 X-2.445 Y16.303 E1.74455
G1 X-3.005 Y16.041 E1.75909
G1 X-3.454 Y15.874 E1.77035
G1 X-3.937 Y15.853 E1.78172
G1 X-4.615 Y16.093 E1.79863
G1 F1802.4 X-5.188 Y16.212 E1.81237
G1 X-5.887 Y16.479 E1.82994
G1 F1800 X-7.153 Y16.903 E1.86133
G1 X-7.684 Y17.146 E1.87506
G1 X-7.952 Y17.289 E1.88221
G1 X-8.195 Y17.492 E1.88965
G1 X-8.691 Y17.586 E1.90152
G1 X-10.89 Y17.586 E1.95323
G1 X-11.174 Y17.616 E1.95994
G1 X-11.628 Y17.925 E1.97286
G1 X-12.431 Y18.325 E1.99395
G1 X-13.367 Y18.822 E2.01887
G1 X-13.854 Y18.994 E2.03101
G1 X-14.605 Y19.334 E2.0504
G1 X-15.242 Y19.564 E2.06632
G1 X-15.434 Y19.605 E2.07094
G1 F1769.3 X-15.768 Y19.564 E2.07899
G1 F1630.4 X-16.141 Y19.382 E2.08976
G1 F1544.6 X-16.386 Y19.018 E2.10178
G1 F1588.2 X-16.56 Y18.949 E2.10677
G1 F1757.8 X-16.862 Y18.702 E2.11616
G1 F1901.4 X-17.079 Y18.268 E2.12697
G1 F1888.1 X-17.686 Y18.421 E2.141
G1 X-17.89 Y18.477 E2.14574
G1 X-17.575 Y18.891 E2.1574
G1 F1831.8 X-17.25 Y19.352 E2.17043
G1 F1652.4 X-16.904 Y19.814 E2.18522
G1 F1636.4 X-16.642 Y20.41 E2.20206
G1 F1769.3 X-16.419 Y20.882 E2.21454
G1 F1800 X-16.12 Y21.499 E2.23066
G1 X-15.911 Y22.035 E2.24419
G1 X-15.614 Y22.932 E2.26641
G1 X-15.441 Y23.625 E2.2832
G1 X-15.412 Y24.19 E2.29651
G1 X-15.291 Y24.734 E2.30961
G1 X-15.276 Y25.267 E2.32215
G1 X-15.232 Y26.038 E2.34031
G1 X-15.246 Y26.736 E2.35672
G1 X-15.237 Y27.099 E2.36526
G1 X-15.126 Y27.482 E2.37464
G1 X-15.134 Y27.99 E2.38658
G1 X-15.276 Y28.537 E2.39987
G1 X-15.28 Y29.051 E2.41196
G1 X-15.411 Y29.592 E2.42504
G1 X-15.598 Y30.208 E2.44018
G1 X-15.833 Y30.831 E2.45584
G1 X-16.084 Y31.447 E2.47148
G1 X-16.371 Y32.028 E2.48671
G1 X-16.455 Y32.216 E2.49156
G1 X-16.004 Y32.341 E2.50256
G1 X-15.346 Y32.362 E2.51804
G1 X-14.774 Y32.497 E2.53186
G1 X-14.457 Y32.531 E2.53936
G1 X-14.098 Y32.644 E2.54821
G1 X-13.583 Y32.683 E2.56035
G1 X-13.012 Y32.828 E2.5742
G1 X-12.501 Y32.861 E2.58624
G1 X-12.069 Y32.983 E2.5968
G1 X-11.333 Y33.054 E2.61418
G1 X-10.833 Y33.161 E2.62621
G1 X-10.207 Y33.181 E2.64093
G1 X-9.43 Y33.329 E2.65953
G1 X-8.808 Y33.343 E2.67416
G1 X-8.231 Y33.447 E2.68795
G1 X-7.517 Y33.503 E2.70479
G1 X-6.838 Y33.565 E2.72082
G1 X-6.204 Y33.636 E2.73582
G1 X-5.498 Y33.674 E2.75244
G1 X-4.919 Y33.678 E2.76606
G1 X-3.992 Y33.783 E2.78799
G1 X-3.421 Y33.829 E2.80146
G1 X-2.997 Y33.845 E2.81144
G1 X-1.54 Y33.853 E2.8457
G1 X4.864 Y33.894 E2.99628
G1 X5.44 Y33.869 E3.00984
G1 X6.893 Y33.751 E3.04411
G1 X7.586 Y33.751 E3.06041
G1 X8.293 Y33.725 E3.07704
G1 X9.127 Y33.604 E3.09686
G1 X10.064 Y33.589 E3.11889
G1 X10.911 Y33.459 E3.13904
G1 X11.471 Y33.45 E3.15221
G1 X12.118 Y33.341 E3.16764
G1 X12.774 Y33.301 E3.18309
G1 X13.506 Y33.166 E3.20059
G1 X13.964 Y33.151 E3.21137
G1 X14.549 Y33.042 E3.22536
G1 X15.049 Y32.996 E3.23717
G1 X15.538 Y32.894 E3.24891
G1 X16.424 Y32.751 E3.27001
G1 X16.922 Y32.695 E3.2818
G1 X17.562 Y32.549 E3.29723
G1 X18.186 Y32.535 E3.31191
G1 X18.769 Y32.396 E3.326
G1 X19.432 Y32.275 E3.34185
G1 X19.987 Y32.143 E3.35526
G1 X20.624 Y32 E3.37061
G1 X21.124 Y31.901 E3.3826
G1 X21.905 Y31.683 E3.40166
G1 X22.655 Y31.495 E3.41984
G1 X23.591 Y31.235 E3.44268
G1 X24.106 Y31.149 E3.45496
G1 X25.041 Y30.876 E3.47786
G1 X25.637 Y30.677 E3.49264
G1 X26.857 Y30.278 E3.52282
G1 X27.372 Y30.063 E3.53594
G1 X28.12 Y29.805 E3.55455
G1 X28.713 Y29.615 E3.56919
G1 X29.213 Y29.414 E3.58186
G1 X29.671 Y29.24 E3.59338
G1 X30.125 Y29.011 E3.60534
G1 X30.76 Y28.743 E3.62154
G1 X31.236 Y28.499 E3.63412
G1 X31.866 Y28.276 E3.64983
G1 X32.812 Y27.769 E3.67507
G1 X33.412 Y27.425 E3.69133
G1 X33.88 Y27.188 E3.70367
G1 X34.493 Y26.863 E3.71998
G1 X34.949 Y26.589 E3.73249
G1 X35.398 Y26.301 E3.74503
G1 X35.847 Y25.95 E3.75843
G1 X36.197 Y25.662 E3.76909
G1 X36.223 Y25.08 E3.78279
G1 X36.298 Y24.49 E3.79677
G1 X36.362 Y23.788 E3.81335
G1 X36.364 Y22.764 E3.83743
G1 X36.41 Y21.675 E3.86305
G1 X36.41 Y20.617 E3.88793
G1 X36.377 Y19.645 E3.9108
G1 X36.362 Y18.798 E3.93072
G1 X36.35 Y17.953 E3.95059
G1 X36.24 Y17.159 E3.96944
G1 X36.203 Y16.376 E3.98787
G1 X36.098 Y15.689 E4.00421
G1 X36.043 Y14.98 E4.02093
G1 X35.937 Y14.323 E4.03658
G1 X35.807 Y13.528 E4.05552
G1 X35.729 Y12.981 E4.06851
G1 X35.593 Y12.335 E4.08403
G1 X35.574 Y11.718 E4.09855
G1 X35.433 Y11.14 E4.11254
G1 X35.311 Y10.484 E4.12823
G1 X34.951 Y8.941 E4.16548
G1 X34.682 Y7.999 E4.18852
G1 X34.542 Y7.437 E4.20213
G1 X34.337 Y6.72 E4.21967
G1 X34.061 Y5.823 E4.24174
G1 X33.944 Y5.224 E4.25609
G1 X33.572 Y4.115 E4.28359
G1 X33.412 Y3.612 E4.296
G1 X33.225 Y3.098 E4.30886
G1 X32.88 Y2.181 E4.3319
G1 X32.625 Y1.395 E4.35133
G1 X32.397 Y0.737 E4.3677
G1 X32.168 Y0.217 E4.38106
G1 X31.826 Y-.6 E4.40189
G1 X31.584 Y-1.209 E4.4173
G1 X31.477 Y-1.312 E4.42079
G1 X31.188 Y-1.498 E4.42887
G1 X30.992 Y-1.762 E4.4366
G1 X30.783 Y-2.263 E4.44937
G1 X30.535 Y-2.699 E4.46116
G1 X30.234 Y-3.35 E4.47802
G1 X30.036 Y-3.821 E4.49004
G1 F1802.4 X29.763 Y-4.267 E4.50232
G1 X29.564 Y-4.87 E4.51723
G1 F1800 X29.211 Y-5.536 E4.53495
G1 X28.936 Y-6.045 E4.54855
G1 X28.644 Y-6.626 E4.56384
G1 X28.353 Y-7.093 E4.57678
G1 X28.165 Y-7.588 E4.58923
G1 X27.9 Y-8.057 E4.6019
G1 X27.636 Y-8.582 E4.61572
G1 X27.303 Y-9.361 E4.63564
G1 X27.004 Y-9.963 E4.65144
G1 X26.683 Y-10.518 E4.66652
G1 X26.377 Y-11.048 E4.68091
G1 X26.072 Y-11.478 E4.6933
G1 X25.74 Y-12.027 E4.70839
G1 X25.534 Y-12.484 E4.72017
G1 X25.208 Y-12.939 E4.73333
G1 X24.86 Y-13.472 E4.7483
G1 X24.56 Y-13.914 E4.76086
G1 X24.174 Y-14.447 E4.77634
G1 X23.913 Y-14.957 E4.78981
G1 X23.508 Y-15.568 E4.80704
G1 X23.247 Y-15.851 E4.8161
G1 X22.83 Y-16.454 E4.83333
G1 X22.55 Y-16.887 E4.84546
G1 X22.226 Y-17.329 E4.85834
G1 X21.908 Y-17.768 E4.87109
G1 X21.58 Y-18.192 E4.8837
G1 X21.23 Y-18.601 E4.89635
G1 X20.963 Y-19.026 E4.90815
G1 X20.54 Y-19.529 E4.92361
G1 X20.093 Y-20.004 E4.93894
G1 X19.767 Y-20.479 E4.95249
G1 X19.368 Y-20.978 E4.96751
G1 X18.964 Y-21.413 E4.98147
G1 X18.728 Y-21.641 E4.98919
G1 X18.284 Y-22.203 E5.00603
G1 X18.076 Y-22.471 E5.01401
G1 X17.683 Y-22.803 E5.0261
G1 X17.222 Y-23.291 E5.04189
G1 X16.845 Y-23.737 E5.05562
G1 X16.158 Y-24.368 E5.07755
G1 X15.753 Y-24.788 E5.09127
G1 X15.368 Y-25.164 E5.10392
G1 X14.92 Y-25.574 E5.1182
G1 X14.508 Y-25.873 E5.13017
G1 X14.155 Y-26.236 E5.14208
G1 X13.822 Y-26.561 E5.15302
G1 X13.346 Y-26.778 E5.16532
G1 X12.79 Y-27.175 E5.18138
G1 X12.408 Y-27.547 E5.19392
G1 X11.902 Y-27.954 E5.20919
G1 X11.308 Y-28.505 E5.22824
G1 X10.915 Y-28.855 E5.24061
G1 X10.02 Y-29.482 E5.26631
G1 X9.588 Y-29.796 E5.27887
G1 X9.109 Y-30.072 E5.29187
G1 X8.619 Y-30.393 E5.30564
G1 X8.17 Y-30.72 E5.3187
G1 X7.718 Y-31.005 E5.33126
G1 X7.241 Y-31.25 E5.34387
G1 X6.738 Y-31.549 E5.35763
G1 X5.817 Y-32.086 E5.3827
G1 X5.37 Y-32.361 E5.39504
G1 X4.803 Y-32.633 E5.40983
G1 X4.28 Y-32.87 E5.42333
G1 X3.854 Y-33.139 E5.43517
G1 X3.36 Y-33.364 E5.44794
G1 X2.89 Y-33.605 E5.46036
G1 X2.433 Y-33.843 E5.47247
G1 X2.243 Y-33.95 E5.4776
G1 X1.66 Y-34.14 E5.49202
G1 X1.206 Y-34.389 E5.50419
G1 X0.981 Y-34.499 E5.51008
G1 X0.72 Y-34.457 E5.5163
G1 X0.108 Y-34.129 E5.53262
G1 X-.408 Y-33.959 E5.5454
G1 X-1.18 Y-33.567 E5.56576
G1 X-1.79 Y-33.246 E5.58196
G1 X-2.251 Y-33.029 E5.59394
G1 X-2.732 Y-32.748 E5.60704
G1 X-3.363 Y-32.492 E5.62305
G1 X-3.951 Y-32.154 E5.639
G1 X-4.757 Y-31.674 E5.66106
G1 X-5.334 Y-31.329 E5.67687
G1 X-5.993 Y-30.968 E5.69453
G1 X-6.756 Y-30.482 E5.71581
G1 X-7.556 Y-29.896 E5.73912
G1 X-8.038 Y-29.64 E5.75196
G1 X-8.56 Y-29.223 E5.76766
G1 X-9.381 Y-28.61 E5.79176
G1 X-9.868 Y-28.281 E5.80558
G1 X-10.246 Y-27.95 E5.81739
G1 X-10.955 Y-27.376 E5.83884
G1 X-11.36 Y-27.031 E5.85135
G1 X-12.477 Y-26.11 E5.88539
G1 X-12.824 Y-25.719 E5.89768
G1 X-13.419 Y-25.217 E5.91599
G1 X-13.8 Y-24.861 E5.92825
G1 X-14.375 Y-24.237 E5.9482
G1 X-14.853 Y-23.834 E5.9629
G1 X-15.36 Y-23.312 E5.98001
G1 X-15.746 Y-22.844 E5.99427
G1 X-16.225 Y-22.373 E6.01007
G1 X-16.811 Y-21.754 E6.03011
G1 X-17.145 Y-21.302 E6.04333
G1 X-17.626 Y-20.804 E6.05961
G1 X-18.418 Y-19.841 E6.08892
G1 X-19.011 Y-19.105 E6.11115
G1 X-19.362 Y-18.635 E6.12494
G1 X-19.652 Y-18.319 E6.13502
G1 X-19.947 Y-17.863 E6.14779
G1 X-20.292 Y-17.388 E6.1616
G1 X-20.708 Y-16.909 E6.17652
G1 X-21.026 Y-16.473 E6.1892
G1 X-21.282 Y-16.001 E6.20183
G1 X-21.592 Y-15.607 E6.21362
G1 X-22.038 Y-14.987 E6.23158
G1 X-22.371 Y-14.468 E6.24608
G1 X-22.69 Y-13.964 E6.2601
G1 X-23.416 Y-12.845 E6.29146
G1 X-23.824 Y-12.253 E6.30837
G1 X-24.221 Y-11.497 E6.32845
G1 X-24.645 Y-10.861 E6.34642
G1 X-24.967 Y-10.318 E6.36126
G1 X-25.294 Y-9.794 E6.37579
G1 X-25.417 Y-9.295 E6.38787
G1 X-25.314 Y-8.855 E6.3985
G1 X-25.057 Y-8.633 E6.40648
G1 X-24.541 Y-8.327 E6.42059
G1 X-23.754 Y-8.071 E6.44005
G1 X-23.26 Y-8.003 E6.45177
G1 X-21.54 Y-8.003 E6.49222
G1 X-20.751 Y-8.093 E6.51089
G1 X-19.987 Y-8.159 E6.52892
G1 X-19.395 Y-8.216 E6.5429
G1 X-18.735 Y-8.295 E6.55853
G1 X-18.163 Y-8.369 E6.57209
G1 X-17.668 Y-8.451 E6.58389
G1 X-17.05 Y-8.539 E6.59857
G1 X-16.422 Y-8.624 E6.61347
G1 X-15.738 Y-8.754 E6.62984
G1 X-15.158 Y-8.877 E6.64378
G1 X-14.527 Y-8.934 E6.65868
G1 X-13.623 Y-9.101 E6.68029
G1 X-13.006 Y-9.256 E6.69525
G1 X-11.771 Y-9.555 E6.72513
G1 X-10.518 Y-9.903 E6.75571
G1 X-9.245 Y-10.301 E6.78707
G1 X-8.777 Y-10.371 E6.7982
G1 X-7.57 Y-10.763 E6.82804
G1 X-7.076 Y-10.96 E6.84054
G1 X-6.008 Y-11.33 E6.86712
G1 X-5.363 Y-11.6 E6.88356
G1 X-4.744 Y-11.76 E6.89859
G1 X-4.238 Y-11.98 E6.91156
G1 X-3.077 Y-12.476 E6.94125
G1 X-2.243 Y-12.861 E6.96285
G1 X-1.326 Y-13.23 E6.98609
G1 X-.86 Y-13.465 E6.99836
G1 X-.409 Y-13.667 E7.00998
G1 X0.064 Y-13.952 E7.02297
G1 X1.016 Y-14.44 E7.04812
G1 X1.493 Y-14.66 E7.06047
G1 X2.231 Y-15.07 E7.08032
G1 X2.759 Y-15.426 E7.0953
G1 X3.349 Y-15.791 E7.11161
G1 X3.803 Y-16.025 E7.12362
G1 X4.323 Y-16.368 E7.13827
G1 X5.441 Y-17.132 E7.17011
G1 X5.875 Y-17.445 E7.18269
G1 X6.36 Y-17.785 E7.19661
