;FLAVOR:Marlin
;TIME:727
;Filament used: 1.17828m
;Layer height: 0.2
;MINX:-39.625
;MINY:-39.625
;MINZ:0.2
;MAXX:39.625
;MAXY:39.625
;MAXZ:1.4
;Generated with Cura_SteamEngine 4.13.1
M104 S200
M105
M109 S200
M82 ;absolute extrusion mode

G92 E0
G92 E0
;LAYER_COUNT:7
;LAYER:0
M107
;MESH:logo.png
G0 F3600 X-1.721 Y1.747 Z0.2
;TYPE:WALL-INNER
G1 F1800 X-3.386 Y1.892 E0.10423
G1 X-4.255 Y2.198 E0.16168
G1 X-4.601 Y2.408 E0.18692
G1 X-5.39 Y2.709 E0.23959
G1 X-5.986 Y2.97 E0.28016
G1 X-7.002 Y3.369 E0.34823
G1 X-7.539 Y3.609 E0.38491
G1 X-8.285 Y3.906 E0.43499
G1 X-8.771 Y4.077 E0.46712
G1 X-9.1 Y4.287 E0.49146
G1 X-9.902 Y4.542 E0.54394
G1 X-10.442 Y5.058 E0.59052
G1 X-10.47 Y5.883 E0.642
G1 X-10.473 Y6.338 E0.67037
G1 X-10.471 Y7.616 E0.75007
G1 X-10.473 Y7.903 E0.76797
G1 X-10.472 Y8.963 E0.83408
G1 X-10.488 Y9.597 E0.87363
G1 X-10.161 Y10.185 E0.91559
G1 X-9.59 Y10.481 E0.9557
G1 X-8.839 Y10.473 E1.00253
G1 X-8.814 Y10.471 E1.0041
G1 X-7.904 Y10.473 E1.06085
G1 X-7.876 Y10.471 E1.0626
G1 X-5.675 Y10.471 E1.19986
G1 X-5.043 Y10.427 E1.23937
G1 X-4.566 Y9.924 E1.2826
G1 X-4.27 Y9.105 E1.33691
G1 X-4.013 Y8.61 E1.37169
G1 X-3.81 Y8.06 E1.40825
G1 X-3.623 Y7.566 E1.44119
G1 X-3.367 Y7.001 E1.47987
G1 X-3.15 Y6.469 E1.5157
G1 X-2.91 Y5.834 E1.55804
G1 X-2.712 Y5.392 E1.58824
G1 X-2.53 Y4.911 E1.62031
G1 X-2.352 Y4.504 E1.64802
G1 X-2.099 Y3.994 E1.68352
G1 X-1.893 Y3.395 E1.72302
G1 X-1.884 Y3.124 E1.73993
G1 X-1.721 Y1.747 E1.8264
G0 F3600 X0.807 Y2.83
G1 F1800 X-.94 Y3.377 E1.94057
G1 X-1.231 Y4.172 E1.99336
G1 X-1.457 Y4.739 E2.03143
G1 X-1.573 Y4.928 E2.04526
G1 X-1.779 Y5.466 E2.08118
G1 X-2.074 Y6.202 E2.13063
G1 X-2.158 Y6.293 E2.13836
G1 X-2.423 Y7.045 E2.18808
G1 X-2.582 Y7.484 E2.2172
G1 X-2.799 Y7.92 E2.24757
G1 X-3.053 Y8.52 E2.2882
G1 X-3.237 Y9.018 E2.32131
G1 X-3.476 Y9.52 E2.35598
G1 X-3.735 Y10.196 E2.40113
G1 X-3.743 Y10.768 E2.4368
G1 X-3.38 Y11.719 E2.50028
G1 X-3.225 Y11.735 E2.51
G1 X-3.128 Y11.876 E2.52067
G1 X-3.008 Y11.951 E2.5295
G1 X-3.007 Y12.02 E2.5338
G1 X-2.83 Y12.121 E2.54651
G1 X-2.828 Y12.172 E2.5497
G1 X-2.54 Y12.351 E2.57084
G1 X-2.538 Y12.504 E2.58038
G1 X-2.362 Y12.615 E2.59336
G1 X-2.36 Y12.649 E2.59548
G1 X-2.205 Y12.741 E2.60673
G1 X-2.2 Y12.827 E2.6121
G1 X-2.033 Y12.92 E2.62402
G1 X-2.031 Y12.955 E2.6262
G1 X-1.75 Y13.134 E2.64698
G1 X-1.746 Y13.263 E2.65503
G1 X-1.441 Y13.451 E2.67737
G1 X-1.439 Y13.606 E2.68704
G1 X-1.286 Y13.714 E2.69872
G1 X-1.246 Y13.791 E2.70413
G1 X-.954 Y13.932 E2.72435
G1 X-.788 Y14.267 E2.74767
G1 X-.213 Y14.287 E2.78355
G1 X0.413 Y14.489 E2.82457
G1 X1.149 Y13.682 E2.89268
G1 X1.665 Y13.185 E2.93736
G1 X2.132 Y12.726 E2.9782
G1 X2.606 Y12.229 E3.02103
G1 X2.997 Y11.836 E3.0556
G1 X3.525 Y11.313 E3.10195
G1 X3.75 Y10.808 E3.13642
G1 X3.75 Y9.975 E3.18837
G1 X3.598 Y9.809 E3.20241
G1 X3.414 Y9.247 E3.23929
G1 X3.289 Y8.821 E3.26697
G1 X3.187 Y8.811 E3.27337
G1 X3.152 Y8.72 E3.27945
G1 X2.984 Y8.117 E3.31848
G1 X2.911 Y8.081 E3.32356
G1 X2.911 Y7.937 E3.33254
G1 X2.688 Y7.615 E3.35697
G1 X2.56 Y7.09 E3.39067
G1 X2.479 Y7.077 E3.39578
G1 X2.272 Y6.558 E3.43063
G1 X2.069 Y6.06 E3.46416
G1 X2.008 Y6.001 E3.46946
G1 X1.735 Y5.253 E3.51911
G1 X1.599 Y4.79 E3.54921
G1 X1.551 Y4.778 E3.55229
G1 X1.448 Y4.409 E3.57619
G1 X1.347 Y4.384 E3.58267
G1 X1.285 Y4.269 E3.59082
G1 X1.109 Y3.702 E3.62785
G1 X1.072 Y3.692 E3.63024
G1 X0.807 Y2.83 E3.68648
G0 F3600 X2.745 Y-.726
G1 F1800 X3.214 Y0.357 E3.76008
G1 X3.244 Y0.954 E3.79735
G1 X4.07 Y1.197 E3.85105
G1 X4.08 Y1.277 E3.85608
G1 X4.364 Y1.363 E3.87458
G1 X4.368 Y1.425 E3.87845
G1 X4.947 Y1.583 E3.91588
G1 X4.95 Y1.591 E3.91642
G1 X5.848 Y1.911 E3.97587
G1 X5.86 Y2.016 E3.98246
G1 X7.055 Y2.418 E4.06109
G1 X7.505 Y2.603 E4.09143
G1 X8.061 Y2.855 E4.1295
G1 X8.106 Y2.933 E4.13511
G1 X8.643 Y3.083 E4.16988
G1 X9.055 Y3.241 E4.1974
G1 X9.138 Y3.374 E4.20718
G1 X9.776 Y3.548 E4.24842
G1 X10.149 Y3.711 E4.2738
G1 X10.712 Y3.755 E4.30902
G1 X11.275 Y3.562 E4.34614
G1 X11.83 Y2.996 E4.39557
G1 X12.295 Y2.537 E4.43632
G1 X12.765 Y2.092 E4.47668
G1 X13.165 Y1.685 E4.51227
G1 X13.568 Y1.299 E4.54707
G1 X14.127 Y0.735 E4.59659
G1 X14.317 Y0.333 E4.62432
G1 X14.416 Y-.324 E4.66576
G1 X14.066 Y-.88 E4.70673
G1 X14.012 Y-1.051 E4.71791
G1 X13.776 Y-1.169 E4.73437
G1 X13.462 Y-1.461 E4.76111
G1 X13.406 Y-1.656 E4.77376
G1 X13.113 Y-1.813 E4.79449
G1 X12.636 Y-2.346 E4.8391
G1 X12.59 Y-2.373 E4.84242
G1 X12.59 Y-2.497 E4.85015
G1 X12.421 Y-2.585 E4.86204
G1 X12.419 Y-2.661 E4.86678
G1 X12.279 Y-2.736 E4.87668
G1 X12.279 Y-2.777 E4.87924
G1 X11.949 Y-2.991 E4.90377
G1 X11.946 Y-3.134 E4.91269
G1 X11.79 Y-3.214 E4.92362
G1 X11.785 Y-3.384 E4.93423
G1 X10.747 Y-3.755 E5.00297
G1 X10.165 Y-3.729 E5.0393
G1 X9.493 Y-3.48 E5.08399
G1 X9.047 Y-3.234 E5.11576
G1 X8.766 Y-3.139 E5.13426
G1 X8.233 Y-2.947 E5.16959
G1 X7.761 Y-2.717 E5.20233
G1 X7.209 Y-2.511 E5.23907
G1 X6.759 Y-2.305 E5.26994
G1 X6.396 Y-2.198 E5.29354
G1 X5.909 Y-1.946 E5.32773
G1 X5.481 Y-1.793 E5.35608
G1 X4.893 Y-1.572 E5.39525
G1 X4.201 Y-1.25 E5.44285
G1 X4.002 Y-1.185 E5.45591
G1 X2.745 Y-.726 E5.53936
G0 F3600 X1.867 Y-1.867
G1 F1800 X3.381 Y-1.887 E5.63379
G1 X4.1 Y-2.158 E5.6817
G1 X4.54 Y-2.403 E5.71311
G1 X4.858 Y-2.495 E5.73375
G1 X5.305 Y-2.707 E5.76461
G1 X5.654 Y-2.811 E5.78732
G1 X6.147 Y-3.064 E5.82187
G1 X6.755 Y-3.282 E5.86215
G1 X7.237 Y-3.499 E5.89512
G1 X7.505 Y-3.599 E5.91296
G1 X7.972 Y-3.81 E5.94492
G1 X8.645 Y-4.05 E5.98948
G1 X9.062 Y-4.278 E6.01911
G1 X9.414 Y-4.372 E6.04183
G1 X9.908 Y-4.573 E6.07509
G1 X10.331 Y-4.945 E6.11022
G1 X10.485 Y-5.639 E6.15456
G1 X10.491 Y-6.386 E6.20114
G1 X10.493 Y-8.9 E6.35792
G1 X10.554 Y-9.313 E6.38396
G1 X10.431 Y-10.525 E6.45993
G1 X9.129 Y-10.542 E6.54113
G1 X8.879 Y-10.491 E6.55704
G1 X7.646 Y-10.493 E6.63394
G1 X6.018 Y-10.492 E6.73546
G1 X5.041 Y-10.399 E6.79667
G1 X4.584 Y-9.942 E6.83697
G1 X4.269 Y-9.096 E6.89327
G1 X4.053 Y-8.651 E6.92412
G1 X3.83 Y-8.076 E6.96258
G1 X3.516 Y-7.279 E7.016
G1 X3.396 Y-7.051 E7.03207
G1 X3.174 Y-6.468 E7.07097
G1 X3.005 Y-6.009 E7.10148
G1 X2.708 Y-5.377 E7.14502
G1 X2.658 Y-5.211 E7.15584
G1 X2.396 Y-4.585 E7.19816
G1 X2.35 Y-4.432 E7.20812
G1 X2.157 Y-4.094 E7.23239
G1 X1.897 Y-3.388 E7.27931
G1 X1.867 Y-1.867 E7.37418
G0 F3600 X0.723 Y-2.749
G1 F1800 X1.173 Y-3.971 E7.45539
G1 X1.371 Y-4.469 E7.48882
G1 X1.604 Y-4.977 E7.52367
G1 X1.836 Y-5.581 E7.56402
G1 X2.009 Y-6.046 E7.59496
G1 X2.301 Y-6.675 E7.63821
G1 X2.349 Y-6.832 E7.64844
G1 X2.549 Y-7.324 E7.68157
G1 X2.716 Y-7.751 E7.71016
G1 X2.94 Y-8.222 E7.74268
G1 X3.133 Y-8.75 E7.77774
G1 X3.307 Y-9.164 E7.80575
G1 X3.527 Y-9.614 E7.83699
G1 X3.73 Y-10.14 E7.87215
G1 X3.761 Y-10.749 E7.91017
G1 X3.494 Y-11.458 E7.95742
G1 X3.492 Y-11.56 E7.96378
G1 X3.444 Y-11.59 E7.96731
G1 X3.377 Y-11.769 E7.97923
G1 X3.2 Y-11.778 E7.99029
G1 X3.2 Y-11.925 E7.99945
G1 X3.007 Y-12.013 E8.01268
G1 X3.004 Y-12.063 E8.0158
G1 X2.885 Y-12.126 E8.0242
G1 X2.885 Y-12.221 E8.03013
G1 X2.455 Y-12.444 E8.06033
G1 X2.257 Y-12.791 E8.08525
G1 X2.167 Y-12.818 E8.09111
G1 X2.136 Y-12.923 E8.09794
G1 X1.908 Y-13.057 E8.11443
G1 X1.576 Y-13.354 E8.14221
G1 X1.527 Y-13.534 E8.15384
G1 X1.234 Y-13.691 E8.17457
G1 X0.476 Y-14.519 E8.24458
G1 X-.391 Y-14.287 E8.30055
G1 X-.743 Y-14.114 E8.32501
G1 X-1.293 Y-13.569 E8.3733
G1 X-1.665 Y-13.184 E8.40668
G1 X-2.307 Y-12.548 E8.46304
G1 X-2.704 Y-12.126 E8.49917
G1 X-3.058 Y-11.768 E8.53057
G1 X-3.56 Y-11.273 E8.57453
G1 X-3.751 Y-10.722 E8.6109
G1 X-3.716 Y-10.181 E8.64471
G1 X-3.485 Y-9.553 E8.68644
G1 X-3.382 Y-9.105 E8.71511
G1 X-3.235 Y-9.028 E8.72546
G1 X-3.06 Y-8.496 E8.76038
G1 X-3.014 Y-8.449 E8.76448
G1 X-2.932 Y-8.129 E8.78508
G1 X-2.882 Y-8.094 E8.78889
G1 X-2.553 Y-7.362 E8.83894
G1 X-2.43 Y-6.787 E8.87561
G1 X-2.326 Y-6.769 E8.88219
G1 X-2.179 Y-6.27 E8.91463
G1 X-2.069 Y-5.953 E8.93556
G1 X-1.95 Y-5.918 E8.94329
G1 X-1.755 Y-5.397 E8.97799
G1 X-1.625 Y-4.962 E9.0063
G1 X-1.582 Y-4.947 E9.00914
G1 X-1.474 Y-4.553 E9.03462
G1 X-1.407 Y-4.52 E9.03927
G1 X-1.305 Y-4.095 E9.06653
G1 X-1.219 Y-4.084 E9.07194
G1 X-1.138 Y-3.912 E9.08379
G1 X-.995 Y-3.243 E9.12646
G1 X-.357 Y-3.214 E9.16629
G1 X0.723 Y-2.749 E9.23961
G0 F3600 X-2.841 Y-.816
G1 F1800 X-3.609 Y-1.047 E9.28963
G1 X-3.61 Y-1.065 E9.29075
G1 X-4.371 Y-1.333 E9.34107
G1 X-4.689 Y-1.51 E9.36376
G1 X-4.693 Y-1.569 E9.36745
G1 X-5.224 Y-1.723 E9.40193
G1 X-5.228 Y-1.736 E9.40278
G1 X-5.991 Y-2.008 E9.4533
G1 X-6.088 Y-2.12 E9.46254
G1 X-6.448 Y-2.219 E9.48582
G1 X-6.474 Y-2.27 E9.48939
G1 X-6.998 Y-2.426 E9.52349
G1 X-7.003 Y-2.511 E9.5288
G1 X-7.321 Y-2.606 E9.54949
G1 X-7.326 Y-2.684 E9.55437
G1 X-8.115 Y-2.911 E9.60557
G1 X-8.118 Y-2.981 E9.60994
G1 X-8.7 Y-3.145 E9.64765
G1 X-8.818 Y-3.19 E9.65552
G1 X-8.826 Y-3.265 E9.66022
G1 X-9.828 Y-3.604 E9.72619
G1 X-9.987 Y-3.738 E9.73916
G1 X-10.8 Y-3.755 E9.78987
G1 X-11.311 Y-3.523 E9.82487
G1 X-11.832 Y-2.999 E9.87095
G1 X-12.296 Y-2.538 E9.91174
G1 X-12.73 Y-2.126 E9.94906
G1 X-13.141 Y-1.711 E9.98548
G1 X-13.566 Y-1.297 E10.02248
G1 X-14.487 Y-.385 E10.10332
G1 X-14.284 Y0.213 E10.1427
G1 X-14.267 Y0.759 E10.17677
G1 X-14.109 Y0.848 E10.18807
G1 X-14.107 Y0.902 E10.19144
G1 X-13.942 Y1 E10.20341
G1 X-13.938 Y1.08 E10.20841
G1 X-13.82 Y1.145 E10.21681
G1 X-13.82 Y1.209 E10.2208
G1 X-13.633 Y1.319 E10.23433
G1 X-13.629 Y1.405 E10.2397
G1 X-13.483 Y1.483 E10.25002
G1 X-13.481 Y1.536 E10.25333
G1 X-13.34 Y1.617 E10.26347
G1 X-13.339 Y1.702 E10.26877
G1 X-13.172 Y1.792 E10.2806
G1 X-13.17 Y1.852 E10.28435
G1 X-13.008 Y1.946 E10.29603
G1 X-13.005 Y2.007 E10.29983
G1 X-12.85 Y2.099 E10.31108
G1 X-12.847 Y2.177 E10.31594
G1 X-12.687 Y2.267 E10.32739
G1 X-12.684 Y2.325 E10.33101
G1 X-12.553 Y2.401 E10.34046
G1 X-12.552 Y2.44 E10.34289
G1 X-12.385 Y2.547 E10.35526
G1 X-12.38 Y2.654 E10.36194
G1 X-12.232 Y2.734 E10.37243
G1 X-12.231 Y2.768 E10.37455
G1 X-12.059 Y2.876 E10.38722
G1 X-12.054 Y2.957 E10.39228
G1 X-11.909 Y3.041 E10.40273
G1 X-11.906 Y3.115 E10.40735
G1 X-11.757 Y3.198 E10.41799
G1 X-11.752 Y3.355 E10.42778
G1 X-10.763 Y3.75 E10.4942
G1 X-10.183 Y3.727 E10.53039
G1 X-9.534 Y3.484 E10.57361
G1 X-9.078 Y3.234 E10.60604
G1 X-8.367 Y3.002 E10.65268
G1 X-7.619 Y2.649 E10.70426
G1 X-7.157 Y2.471 E10.73514
G1 X-6.634 Y2.277 E10.76993
G1 X-6.096 Y2.024 E10.807
G1 X-5.652 Y1.826 E10.83732
G1 X-5.353 Y1.739 E10.85674
G1 X-4.789 Y1.477 E10.89552
G1 X-4.22 Y1.258 E10.93355
G1 X-3.375 Y0.953 E10.98957
G1 X-2.841 Y-.816 E11.10481
G0 F3600 X-9.187 Y-4.667
G0 X-10.067 Y-5.31
G0 X-10.169 Y-9.41
G0 X-9.931 Y-10.897
G1 F1800 X-10.512 Y-9.459 E11.20153
G1 X-10.471 Y-9.062 E11.22642
G1 X-10.473 Y-7.751 E11.30817
G1 X-10.47 Y-5.599 E11.44238
G1 X-10.273 Y-4.62 E11.50466
G1 X-9.71 Y-4.489 E11.5407
G1 X-9.101 Y-4.276 E11.58094
G1 X-9.012 Y-4.139 E11.59113
G1 X-8.427 Y-3.951 E11.62945
G1 X-7.77 Y-3.705 E11.6732
G1 X-7.77 Y-3.582 E11.68087
G1 X-6.882 Y-3.342 E11.73823
G1 X-6.658 Y-3.246 E11.75343
G1 X-6.613 Y-3.167 E11.7591
G1 X-6.1 Y-3.037 E11.7921
G1 X-5.87 Y-2.882 E11.8094
G1 X-5.195 Y-2.653 E11.85385
G1 X-5.104 Y-2.579 E11.86117
G1 X-4.574 Y-2.398 E11.89609
G1 X-4.474 Y-2.241 E11.9077
G1 X-4.161 Y-2.162 E11.92783
G1 X-2.878 Y-1.729 E12.01228
G1 X-1.476 Y-2.793 E12.12204
G1 X-1.89 Y-3.42 E12.16889
G1 X-1.89 Y-3.448 E12.17064
G1 X-2.401 Y-4.827 E12.26235
G1 X-2.464 Y-4.832 E12.26629
G1 X-2.714 Y-5.47 E12.30903
G1 X-2.767 Y-5.561 E12.31559
G1 X-2.9 Y-6.078 E12.34889
G1 X-2.983 Y-6.122 E12.35474
G1 X-3.096 Y-6.576 E12.38392
G1 X-3.168 Y-6.582 E12.38843
G1 X-3.251 Y-6.796 E12.40274
G1 X-3.369 Y-6.974 E12.41606
G1 X-3.508 Y-7.438 E12.44627
G1 X-3.606 Y-7.56 E12.45603
G1 X-3.772 Y-8.076 E12.48983
G1 X-3.911 Y-8.415 E12.51268
G1 X-3.988 Y-8.481 E12.519
G1 X-4.221 Y-9.305 E12.5724
G1 X-4.336 Y-9.325 E12.57968
G1 X-4.414 Y-9.489 E12.59101
G1 X-4.425 Y-9.758 E12.6078
G1 X-5.053 Y-10.436 E12.66543
G1 X-5.806 Y-10.49 E12.71251
G1 X-6.462 Y-10.493 E12.75342
G1 X-6.536 Y-10.491 E12.75804
G1 X-7.122 Y-10.489 E12.79458
G1 X-7.895 Y-10.49 E12.84279
G1 X-8.16 Y-10.493 E12.85932
G1 X-8.904 Y-10.493 E12.90571
G1 X-9.931 Y-10.897 E12.97454
G0 F3600 X-5.704 Y-14.322
G1 F1800 X-6.763 Y-15.175 E13.05934
G1 X-6.961 Y-15.777 E13.09886
G1 X-7.03 Y-15.852 E13.10522
G1 X-7.208 Y-16.475 E13.14562
G1 X-7.254 Y-16.476 E13.14849
G1 X-7.37 Y-16.664 E13.16227
G1 X-7.671 Y-17.535 E13.21974
G1 X-7.704 Y-17.539 E13.22181
G1 X-7.751 Y-17.695 E13.23197
G1 X-7.833 Y-17.769 E13.23886
G1 X-7.881 Y-17.892 E13.24709
G1 X-8.126 Y-18.442 E13.28464
G1 X-8.339 Y-18.967 E13.31998
G1 X-8.736 Y-19.094 E13.34597
G1 X-8.761 Y-19.155 E13.35008
G1 X-8.906 Y-19.201 E13.35957
G1 X-8.922 Y-19.275 E13.36429
G1 X-9.403 Y-19.452 E13.39625
G1 X-9.408 Y-19.528 E13.401
G1 X-9.958 Y-19.717 E13.43727
G1 X-10.095 Y-19.867 E13.44994
G1 X-10.641 Y-20.081 E13.48651
G1 X-10.644 Y-20.161 E13.4915
G1 X-11.212 Y-20.347 E13.52878
G1 X-11.294 Y-20.423 E13.53575
G1 X-11.506 Y-20.495 E13.54971
G1 X-11.594 Y-20.583 E13.55747
G1 X-11.841 Y-20.663 E13.57366
G1 X-11.922 Y-20.737 E13.58051
G1 X-12.105 Y-20.799 E13.59255
G1 X-12.168 Y-20.87 E13.59847
G1 X-12.312 Y-20.921 E13.608
G1 X-12.379 Y-21.045 E13.61679
G1 X-12.955 Y-21.223 E13.65439
G1 X-13.317 Y-21.423 E13.68018
G1 X-12.689 Y-21.316 E13.69365
G1 X-12.159 Y-21.311 E13.71421
G1 X-12.108 Y-21.243 E13.71589
G1 X-11.081 Y-21.155 E13.77864
G1 X-10.753 Y-21.166 E13.7991
G1 X-9.362 Y-21.863 E13.89613
G1 X-9.876 Y-22.666 E13.95559
G1 X-9.876 Y-22.722 E13.95908
G1 X-10.126 Y-23.304 E13.99858
G1 X-10.431 Y-24.189 E14.05696
G1 X-10.5 Y-24.238 E14.06224
G1 X-10.636 Y-24.72 E14.09347
G1 X-10.694 Y-24.752 E14.0976
G1 X-10.749 Y-24.833 E14.10371
G1 X-10.902 Y-25.507 E14.14681
G1 X-11.058 Y-25.522 E14.15658
G1 X-11.094 Y-25.568 E14.16022
G1 X-11.101 Y-25.82 E14.17595
G1 X-11.583 Y-25.988 E14.20778
G1 X-12.497 Y-26.267 E14.26737
G1 X-12.498 Y-26.29 E14.26881
G1 X-13.117 Y-26.472 E14.30905
G1 X-13.196 Y-26.542 E14.31563
G1 X-14.204 Y-26.872 E14.38177
G1 X-14.277 Y-26.918 E14.38715
G1 X-14.834 Y-27.09 E14.42351
G1 X-14.927 Y-27.169 E14.43112
G1 X-16.012 Y-27.529 E14.50241
G1 X-16.027 Y-27.529 E14.50334
G1 X-16.597 Y-27.724 E14.54091
G1 X-16.716 Y-27.808 E14.55
G1 X-17.691 Y-28.136 E14.61415
G1 X-17.716 Y-28.139 E14.61572
G1 X-18.247 Y-28.324 E14.65079
G1 X-18.26 Y-28.361 E14.65323
G1 X-17.333 Y-28.355 E14.67975
G1 X-15.306 Y-28.354 E14.80616
G1 X-14.742 Y-28.349 E14.84134
G1 X-14.367 Y-28.32 E14.86479
G1 X-14.251 Y-28.262 E14.87288
G1 X-13.766 Y-28.207 E14.90332
G1 X-12.917 Y-28.202 E14.95627
G1 X-11.707 Y-28.94 E15.04465
G1 X-11.817 Y-29.153 E15.0596
G1 X-10.987 Y-28.944 E15.09626
G1 X-10.313 Y-29.658 E15.15749
G1 X-10.085 Y-29.882 E15.17743
G1 X-9.692 Y-30.284 E15.21249
G1 X-9.242 Y-30.758 E15.25324
G1 X-8.85 Y-31.256 E15.29277
G1 X-8.724 Y-31.391 E15.30428
G1 X-8.359 Y-31.758 E15.33656
G1 X-7.937 Y-32.178 E15.37369
G1 X-7.569 Y-32.609 E15.40904
G1 X-7.003 Y-33.15 E15.45786
G1 X-7.162 Y-32.82
G1 X-7.458 Y-32.183 E15.49008
G1 X-7.657 Y-31.716 E15.51623
G1 X-7.88 Y-31.336 E15.53682
G1 X-8.115 Y-30.749 E15.57625
G1 X-8.306 Y-30.344 E15.60418
G1 X-8.564 Y-29.849 E15.63899
G1 X-8.848 Y-29.217 E15.6822
G1 X-8.891 Y-29.085 E15.69086
G1 X-9.049 Y-28.894 E15.70631
G1 X-9.294 Y-28.241 E15.74981
G1 X-9.501 Y-27.82 E15.77907
G1 X-9.738 Y-27.352 E15.81178
G1 X-9.982 Y-26.853 E15.84642
G1 X-10.138 Y-26.459 E15.87285
G1 X-10.165 Y-25.99 E15.90214
G1 X-10.024 Y-25.276 E15.94753
G1 X-9.959 Y-25.219 E15.95292
G1 X-9.504 Y-24.006 E16.03371
G1 X-9.439 Y-23.987 E16.03794
G1 X-9.28 Y-23.304 E16.08167
G1 X-9.188 Y-23.299 E16.08742
G1 X-9.121 Y-23.184 E16.09572
G1 X-8.972 Y-22.55 E16.13633
G1 X-7.916 Y-22.454 E16.20246
G1 X-7.297 Y-22.638 E16.24273
G1 X-6.686 Y-23.292 E16.29855
G1 X-6.461 Y-23.648 E16.32481
G1 X-6.084 Y-24.095 E16.36128
G1 X-5.662 Y-24.662 E16.40535
G1 X-5.891 Y-24.004 E16.41166
G1 X-6.069 Y-23.466 E16.42689
G1 X-6.275 Y-22.714 E16.46664
G1 X-6.541 Y-21.954 E16.51685
G1 X-6.654 Y-21.711 E16.53357
G1 X-6.856 Y-20.964 E16.58183
G1 X-7.039 Y-20.325 E16.62328
G1 X-7.334 Y-19.513 E16.67715
G1 X-7.342 Y-19.01 E16.70853
G1 X-7.136 Y-18.399 E16.74874
G1 X-7.082 Y-18.308 E16.75534
G1 X-6.938 Y-17.687 E16.79509
G1 X-6.843 Y-17.678 E16.80104
